!!!!SEGMENT: pl-cz--iii-657_stefani-jan--partita-c.krn
!!!cenid: 18xx:282
!!!COM: Stefani, Jan
!!!COM-rismID: pe30012827
!!!CDT: ~1746-1829/02/23
!!!CNT: Polish
!!!OTL: Partita c
!!!PDT:
!!!AGN: Sacred
!!!SMS-siglum: PL-CZ
!!!SMS-shelfmark: III-657
!!!SMS-shelfwork: W
!!!NIFC-rismSourceID:
!!!NIFC-islandoraID: pl-cz:39652
!!!URL-pdf-islandora: https://repozytorium.nifc.pl/islandora/object/pl-cz%3A39652/datastream/PDF/view
!!!URL-scan:
!!!ONB-nifc:
!!!AIN: 2 cor 2 empty 2 fagot
!!!key:
**kern	**dynam	**kern	**dynam	**kern	**dynam	**kern	**dynam	**kern	**dynam	**kern	**dynam
*part6	*part6	*part5	*part5	*part4	*part4	*part3	*part3	*part2	*part2	*part1	*part1
*staff6	*	*staff5	*	*staff4	*	*staff3	*	*staff2	*	*staff1	*
*group2	*	*group2	*	*group1	*	*group1	*	*group1	*	*group1	*
*Icor	*	*Icor	*	*Ifagot	*	*Ifagot	*	*Iempty	*	*Iempty	*
*I"Corno Secundo	*	*I"Corno Primo	*	*I"Fagotto Secundo	*	*I"Fagotto 1mo	*	*I"Clarnetto 2do	*	*I"Clarnetto 1mo	*
*I'Cor II	*	*I'Cor I	*	*I'Fag II	*	*I'Fag I	*	*I'Cl II	*	*I'Cl I	*
*clefG2	*	*clefG2	*	*clefF4	*	*clefF4	*	*clefG2	*	*clefG2	*
*ITrd5c9	*	*ITrd5c9	*	*	*	*	*	*ITrd1c2	*	*ITrd1c2	*
*k[b-e-a-]	*	*k[b-e-a-]	*	*k[b-a-e-]	*	*k[e-b-a-]	*	*k[b-e-a-]	*	*k[b-e-a-]	*
*c:	*	*c:	*	*c:	*	*c:	*	*c:	*	*c:	*
*M4/4	*	*M4/4	*	*M4/4	*	*M4/4	*	*M4/4	*	*M4/4	*
*met(c)	*	*met(c)	*	*met(c)	*	*met(c)	*	*met(c)	*	*met(c)	*
*[ABCDEFGHIKK1KK2]	*	*[ABCDEFGHIKK1KK2]	*	*[ABCDEFGHIKK1KK2]	*	*[ABCDEFGHIKK1KK2]	*	*[ABCDEFGHIKK1KK2]	*	*[ABCDEFGHIKK1KK2]	*
=1	=1	=1	=1	=1	=1	=1	=1	=1	=1	=1	=1
*>A	*	*>A	*	*>A	*	*>A	*	*>A	*	*>A	*
*	*	*2\right	*	*	*	*	*	*	*	*	*
!LO:TX:a:Bi:t=Partia	!	!LO:TX:a:Bi:t=Partia	!	!LO:TX:a:Bi:t=Partia	!	!LO:TX:a:Bi:t=Partia	!	!LO:TX:a:Bi:t=Partia	!	!LO:TX:a:Bi:t=Partia	!
!LO:TX:a:B:t=Allegro	!	!LO:TX:a:B:t=Allegro	!	!LO:TX:a:B:t=Allegro	!	!LO:TX:a:B:t=Alegro	!	!LO:TX:a:B:t=Allegro	!	!LO:TX:a:B:t=Allegro	!
2G/	.	2e-\	f	4.C/	f	4.C/	f	4.e-/	f	4.cc\	f
.	.	.	.	8BBn/	.	8BBn/	.	8d/	.	8bX\	.
4G/	.	4e-\	.	8C/L	.	8C/L	.	8e-/L	.	8cc\L	.
.	.	.	.	8BB/	.	8BB/	.	8d/	.	8b\	.
4G/	.	4e-\	.	8C/	.	8C/	.	8e-/	.	8cc\	.
.	.	.	.	8BB/J	.	8BB/J	.	8d/J	.	8b\J	.
=2	=2	=2	=2	=2	=2	=2	=2	=2	=2	=2	=2
4G/	.	4e-\	.	4C/	.	4C/	.	4e-/	.	(8cc\L	.
.	.	.	.	.	.	.	.	.	.	8dd\	.
4r	.	4r	.	4r	.	4r	.	4r	.	8ee-\	.
.	.	.	.	.	.	.	.	.	.	8ff\J)	.
2r	.	2r	.	2r	.	2r	.	2r	.	(8gg\L	.
.	.	.	.	.	.	.	.	.	.	8ff\	.
.	.	.	.	.	.	.	.	.	.	8ee-\	.
.	.	.	.	.	.	.	.	.	.	8dd\J)	.
=3	=3	=3	=3	=3	=3	=3	=3	=3	=3	=3	=3
2G/	.	2e-\	.	4.C/	.	4.C/	.	4.e-/	.	4.cc\	.
.	.	.	.	8BBn/	.	8BBn/	.	8d/	.	8bX\	.
4G/	.	4e-\	.	8C/L	.	8C/L	.	8e-/L	.	8cc\L	.
.	.	.	.	8BB/	.	8BB/	.	8d/	.	8b\	.
4G/	.	4e-\	.	8C/	.	8C/	.	8e-/	.	8cc\	.
.	.	.	.	8BB/J	.	8BB/J	.	8d/J	.	8b\J	.
=4	=4	=4	=4	=4	=4	=4	=4	=4	=4	=4	=4
1G	.	1e-	.	4C/	.	4C/	.	1e-	.	(8cc\L	.
.	.	.	.	.	.	.	.	.	.	8dd\	.
.	.	.	.	4r	.	4r	.	.	.	8ee-\	.
.	.	.	.	.	.	.	.	.	.	8ff\J)	.
!	!	!	!	!	!	!	!	!	!	!LO:TX:a:t=problem:niejednoznaczny zapis łuku	!
.	.	.	.	2r	.	2r	.	.	.	(8gg\L	.
.	.	.	.	.	.	.	.	.	.	8aa-\	.
.	.	.	.	.	.	.	.	.	.	8bbX\	.
.	.	.	.	.	.	.	.	.	.	8ccc\J)	.
=5	=5	=5	=5	=5	=5	=5	=5	=5	=5	=5	=5
*	*	*	*	*2\right	*	*2\right	*	*2\right	*	*2\right	*
*	*	*	*	*tremolo	*	*tremolo	*	*	*	*	*
!LO:TX:a:t=2	!	!LO:TX:a:t=2	!	!LO:LB:g=original	!	!	!	!	!	!LO:LB:g=original	!
0r	.	0r	.	8c\L	.	8c\L	.	2ff\	.	2aa-X\	p
.	.	.	.	8c\	.	8c\	.	.	.	.	.
.	.	.	.	8c\	.	8c\	.	.	.	.	.
.	.	.	.	8c\J	.	8c\J	.	.	.	.	.
.	.	.	.	8c\L	.	8c\L	.	2dd\	.	2ff\	.
.	.	.	.	8c\	.	8c\	.	.	.	.	.
.	.	.	.	8c\	.	8c\	.	.	.	.	.
.	.	.	.	8c\J	.	8c\J	.	.	.	.	.
=6	=6	=6	=6	=6	=6	=6	=6	=6	=6	=6	=6
.	.	.	.	8c\L	.	8c\L	.	2ee-\	.	2gg\	.
.	.	.	.	8c\	.	8c\	.	.	.	.	.
.	.	.	.	8c\	.	8c\	.	.	.	.	.
.	.	.	.	8c\J	.	8c\J	.	.	.	.	.
.	.	.	.	8c\L	.	8c\L	.	2cc\	.	2ee-\	.
.	.	.	.	8c\	.	8c\	.	.	.	.	.
.	.	.	.	8c\	.	8c\	.	.	.	.	.
.	.	.	.	8c\J	.	8c\J	.	.	.	.	.
=7	=7	=7	=7	=7	=7	=7	=7	=7	=7	=7	=7
!	!	!	!	!	!	!LO:LB:g=original	!	!	!	!	!
4r	.	4r	.	8G\L	.	8G\L	.	4bX\	.	4dd\	.
.	.	.	.	8G\	.	8G\	.	.	.	.	.
4G/	.	4g\	.	8G\	.	8G\	.	4cc\	.	4ee-\	.
.	.	.	.	8G\J	.	8G\J	.	.	.	.	.
.	.	.	.	.	.	.	.	.	.	16qqgg/	.
4G/	.	4g\	.	8G\L	.	8G\L	.	4dd\	.	4ff\	.
.	.	.	.	8G\	.	8G\	.	.	.	.	.
4G/	.	4g\	.	8G\	.	8G\	.	8cc\L	.	8ee-\L	.
.	.	.	.	8G\J	.	8G\J	.	8b\J	.	8dd\J	.
=8	=8	=8	=8	=8	=8	=8	=8	=8	=8	=8	=8
!	!	!	!	!	!	!	!	!LO:LB:g=original	!	!	!
4G/	.	4g\	.	8c\L	.	8c\L	.	4cc\	.	4.cc\	<
.	.	.	.	8c\	.	8c\	.	.	.	.	.
4r	.	4r	.	8c\	.	8c\	.	4r	.	.	.
.	.	.	.	8c\J	.	8c\J	.	.	.	8dd\	.
2r	.	2r	.	8c\L	.	8c\L	.	2r	.	8ee-\L	.
.	.	.	.	8c\	.	8c\	.	.	.	8eeX\	.
.	.	.	.	8c\	.	8c\	.	.	.	8ff\	.
.	.	.	.	8c\J	.	8c\J	.	.	.	8gg\J	[[
=9	=9	=9	=9	=9	=9	=9	=9	=9	=9	=9	=9
!LO:TX:a:t=6	!	!LO:TX:a:t=6	!	!	!	!	!	!	!	!	!
00r	.	00r	.	8c\L	.	8c\L	.	2ff\	.	2aa-\	.
.	.	.	.	8c\	.	8c\	.	.	.	.	.
.	.	.	.	8c\	.	8c\	.	.	.	.	.
.	.	.	.	8c\J	.	8c\J	.	.	.	.	.
.	.	.	.	8c\L	.	8c\L	.	2dd\	.	2ff\	.
.	.	.	.	8c\	.	8c\	.	.	.	.	.
.	.	.	.	8c\	.	8c\	.	.	.	.	.
.	.	.	.	8c\J	.	8c\J	.	.	.	.	.
=10	=10	=10	=10	=10	=10	=10	=10	=10	=10	=10	=10
.	.	.	.	8c\L	.	8c\L	.	2ee-\	.	2gg\	.
.	.	.	.	8c\	.	8c\	.	.	.	.	.
.	.	.	.	8c\	.	8c\	.	.	.	.	.
.	.	.	.	8c\J	.	8c\J	.	.	.	.	.
.	.	.	.	8c\L	.	8c\L	.	2cc\	.	2ee-\	.
.	.	.	.	8c\	.	8c\	.	.	.	.	.
.	.	.	.	8c\	.	8c\	.	.	.	.	.
.	.	.	.	8c\J	.	8c\J	.	.	.	.	.
=11	=11	=11	=11	=11	=11	=11	=11	=11	=11	=11	=11
!	!	!	!	!	!	!	!	!LO:TX:a:t=problem:niejednoznaczny zapis crescenda	!	!	!
.	.	.	.	4FF/	.	4F\	f	8cc\	<	2.dd\	.
.	.	.	.	.	.	.	.	4cc\	.	.	.
.	.	.	.	4GG/	.	4G\	.	.	.	.	.
.	.	.	.	.	.	.	.	4cc\	[[	.	.
.	.	.	.	4AA-/	.	4A-X\	.	.	.	.	.
.	.	.	.	.	.	.	.	4cc\	.	.	.
.	.	.	.	4GG/	f	4G\	.	.	.	8ee-\L	.
.	.	.	.	.	.	.	.	8cc\	.	8dd\J	.
=12	=12	=12	=12	=12	=12	=12	=12	=12	=12	=12	=12
!	!	!	!	!	!	!	!	!LO:TX:a:t=problem:niejednoznaczny zapis crescenda	!	!LO:TX:a:t=problem:niejednoznaczny zapis łuku	!
.	.	.	.	4FF/	.	4F\	f	8cc\	<	(2.dd\	.
.	.	.	.	.	.	.	.	4cc\	.	.	.
.	.	.	.	4GG/	.	4G\	.	.	.	.	.
.	.	.	.	.	.	.	.	4cc\	[[	.	.
.	.	.	.	4AA-/	.	4A-\	.	.	.	.	.
.	.	.	.	.	.	.	.	4cc\	.	.	.
.	.	.	.	4GG/	.	4G\	.	.	.	8ee-\L	.
.	.	.	.	.	.	.	.	8cc\	.	8dd\J)	.
=13	=13	=13	=13	=13	=13	=13	=13	=13	=13	=13	=13
!	!	!	!	!LO:LB:g=original	!	!	!	!	!	!LO:LB:g=original	!
0r	.	0r	.	8FF/L	.	8F\L	.	8cc\	f	8dd\	.
.	.	.	.	8FF/	.	8F\	.	4cc\	.	4dd\	.
.	.	.	.	8FF/	.	8F\	.	.	.	.	.
.	.	.	.	8FF/J	.	8F\J	.	4cc\	.	4dd\	.
.	.	.	.	8FF#X/L	.	8F#X\L	.	.	.	.	.
.	.	.	.	8FF#/	.	8F#\	.	4cc\	.	4dd\	.
.	.	.	.	8FF#/	.	8F#\	.	.	.	.	.
.	.	.	.	8FF#/J	.	8F#\J	.	8cc\	.	8dd\	.
=14	=14	=14	=14	=14	=14	=14	=14	=14	=14	=14	=14
.	.	.	.	4GG/	.	4G\	.	4bX\	.	4dd\	f
.	.	.	.	4GG/	.	4G\	.	4b\	.	4dd\	.
.	.	.	.	4GG/	.	4G\	.	4b\	.	4dd\	.
.	.	.	.	4r	.	4r	.	4r	.	4r	.
=15	=15	=15	=15	=15	=15	=15	=15	=15	=15	=15	=15
!LO:LB:g=original	!LO:DY:a	!LO:LB:g=original	!	!	!	!	!	!LO:LB:g=original	!	!	!
1E-	p	1e-	p	8E-\L	.	8e-\L	.	2.g/	p	2.b-\	p
.	.	.	.	8E-\	.	8e-\	.	.	.	.	.
.	.	.	.	8E-\	.	8e-\	.	.	.	.	.
.	.	.	.	8E-\J	.	8e-\J	.	.	.	.	.
.	.	.	.	8E-\L	.	8e-\L	.	.	.	.	.
.	.	.	.	8E-\	.	8e-\	.	.	.	.	.
.	.	.	.	8E-\	.	8e-\	.	8f/L	.	8a-\L	.
.	.	.	.	8E-\J	.	8e-\J	.	8e-/J	.	8g\J	.
=16	=16	=16	=16	=16	=16	=16	=16	=16	=16	=16	=16
!	!	!	!	!	!	!LO:LB:g=original	!	!	!	!	!
4e-\	.	1e-	.	8E-\L	.	8e-\L	.	2.e-/	.	2.g\	.
.	.	.	.	8E-\	.	8e-\	.	.	.	.	.
4e-\	.	.	.	8E-\	.	8e-\	.	.	.	.	.
.	.	.	.	8E-\J	.	8e-\J	.	.	.	.	.
4e-\	.	.	.	8E-\L	.	8e-\L	.	.	.	.	.
.	.	.	.	8E-\	.	8e-\	.	.	.	.	.
4e-\	.	.	.	8E-\	.	8e-\	.	8f/L	.	8a-\L	.
.	.	.	.	8E-\J	.	8e-\J	.	8g/J	.	8b-\J	.
=17	=17	=17	=17	=17	=17	=17	=17	=17	=17	=17	=17
1E-	.	4e-\	.	8e-\L	.	8e-\L	.	4a-\	.	4cc\	.
.	.	.	.	8e-\	.	8e-\	.	.	.	.	.
.	.	4e-\	.	8e-\	.	8e-\	.	4a-\	.	4cc\	.
.	.	.	.	8e-\J	.	8e-\J	.	.	.	.	.
.	.	4e-\	.	8e-\L	.	8e-\L	.	4a-\	.	4cc\	.
.	.	.	.	8e-\	.	8e-\	.	.	.	.	.
.	.	4e-\	.	8e-\	.	8e-\	.	4a-\	.	4cc\	.
.	.	.	.	8e-\J	.	8e-\J	.	.	.	.	.
=18	=18	=18	=18	=18	=18	=18	=18	=18	=18	=18	=18
!LO:N:vis=4	!	!	!	!	!	!	!	!	!	!	!
2E-/	.	2e-\	.	8e-\L	.	8e-\L	.	2a-\	.	2cc\	.
.	.	.	.	8e-\	.	8e-\	.	.	.	.	.
.	.	.	.	8e-\	.	8e-\	.	.	.	.	.
.	.	.	.	8e-\J	.	8e-\J	.	.	.	.	.
4E-/	.	4e-\	.	8e-\L	.	8e-\L	.	4g\	.	4b-\	.
.	.	.	.	8B-\	.	8B-\	.	.	.	.	.
4r	.	4r	.	8G\	.	8G\	.	4r	.	4r	.
.	.	.	.	8E-\J	.	8E-\J	.	.	.	.	.
=19	=19	=19	=19	=19	=19	=19	=19	=19	=19	=19	=19
1B-	.	1f	f	8BB-\L	f	8B-\L	.	2ff\	.	2.aa-\	f
.	.	.	.	8D\	.	8d\	.	.	.	.	.
!	!	!	!	!LO:TX:a:t=SIC&colon;s=8F	!	!	!	!	!	!	!
.	.	.	.	8E-\	.	8f\	.	.	.	.	.
.	.	.	.	8E-\J	.	8e-\J	.	.	.	.	.
!	!	!	!	!LO:LB:g=original	!	!	!	!	!	!	!
.	.	.	.	8D/L	.	8d\L	.	2b-\	.	.	.
.	.	.	.	8C/	.	8c\	.	.	.	.	.
.	.	.	.	8BB-/	.	8B-\	.	.	.	8ff\L	.
.	.	.	.	8AA-/J	.	8A-\J	.	.	.	8dd\J	.
=20	=20	=20	=20	=20	=20	=20	=20	=20	=20	=20	=20
4e-\	.	4g\	.	4GG/	.	4G\	.	4b-\	.	8ee-\L	.
.	.	.	.	.	.	.	.	.	.	8ff\	.
4r	.	4r	.	4r	.	4r	.	4r	.	8gg\	.
.	.	.	.	.	.	.	.	.	.	8ff\J	.
!	!	!	!	!	!	!	!	!	!	!LO:LB:g=original	!
2r	.	2r	.	2r	.	2r	.	2r	.	8ee-\L	.
.	.	.	.	.	.	.	.	.	.	8dd\	.
.	.	.	.	.	.	.	.	.	.	8cc\	.
.	.	.	.	.	.	.	.	.	.	8b-\J	.
=21	=21	=21	=21	=21	=21	=21	=21	=21	=21	=21	=21
4r	.	4r	.	8B-\L	.	8B-\L	.	1a-	.	2.b-\	.
.	.	.	.	8B-\	.	8B-\	.	.	.	.	.
4B-/	.	4f\	.	8B-\	.	8B-\	.	.	.	.	.
.	.	.	.	8B-\J	.	8B-\J	.	.	.	.	.
4B-/	.	4f\	.	8BB-/L	.	8BB-/L	.	.	.	.	.
.	.	.	.	8BB-/	.	8BB-/	.	.	.	.	.
4B-/	.	4f\	.	8BB-/	.	8BB-/	.	.	.	8cc\L	.
.	.	.	.	8BB-/J	.	8BB-/J	.	.	.	8dd\J	.
=22	=22	=22	=22	=22	=22	=22	=22	=22	=22	=22	=22
4E-/	.	4e-\	.	4E-\	.	4E-\	.	4g/	.	4ee-\	.
4r	.	4r	.	4r	.	4r	.	4r	.	4r	.
!	!	!	!	!	!	!	!	!	!LO:DY:t=ffor	!	!
2r	.	2r	.	2r	.	2r	.	(4ff\	ff	4gg\	f
.	.	.	.	.	.	.	.	8dd\)	.	8ff\	.
.	.	.	.	.	.	.	.	8r	.	8r	.
=23	=23	=23	=23	=23	=23	=23	=23	=23	=23	=23	=23
!LO:LB:g=original	!	!	!	!	!	!	!	!	!	!	!
!LO:TX:a:t=3	!	!LO:TX:a:t=3	!	!LO:TX:a:t=3	!	!LO:TX:a:t=3	!	!LO:LB:g=original	!	!	!LO:DY:t=ffor
0r	.	0r	.	0r	.	0r	.	(4cc\	.	(4ee-\	ff
.	.	.	.	.	.	.	.	8bX\)	.	8dd\)	.
.	.	.	.	.	.	.	.	8r	.	8r	.
.	.	.	.	.	.	.	.	(4cc\	.	(4ee-\	f
.	.	.	.	.	.	.	.	8b\)	.	8dd\)	.
.	.	.	.	.	.	.	.	8r	.	8r	.
=24	=24	=24	=24	=24	=24	=24	=24	=24	=24	=24	=24
.	.	.	.	.	.	.	.	4cc\	.	4ee-\	.
.	.	.	.	.	.	.	.	4r	.	4r	.
.	.	.	.	.	.	.	.	2e-/	.	4ee-\	.
.	.	.	.	.	.	.	.	.	.	8dd\	.
.	.	.	.	.	.	.	.	.	.	8r	.
=25	=25	=25	=25	=25	=25	=25	=25	=25	=25	=25	=25
1r	.	1r	.	1r	.	1r	.	1e-	.	(4cc\	.
.	.	.	.	.	.	.	.	.	.	8bX\)	.
.	.	.	.	.	.	.	.	.	.	8r	.
.	.	.	.	.	.	.	.	.	.	(4cc\	.
.	.	.	.	.	.	.	.	.	.	8b\)	.
.	.	.	.	.	.	.	.	.	.	8r	.
=26	=26	=26	=26	=26	=26	=26	=26	=26	=26	=26	=26
!	!	!	!	!	!	!LO:LB:g=original	!	!	!	!LO:LB:g=original	!
2r	.	2r	.	2r	.	2r	.	4e-/	.	4cc\	.
.	.	.	.	.	.	.	.	4r	.	4r	.
2B-/	f	2f\	f	4c\	f	4c\	f	2ff\	f	2aa-\	f
.	.	.	.	8B-\	.	8B-\	.	.	.	.	.
.	.	.	.	8r	.	8r	.	.	.	.	.
=27	=27	=27	=27	=27	=27	=27	=27	=27	=27	=27	=27
*2\right	*	*	*	*	*	*	*	*	*	*	*
2e-\	.	2g\	.	4A-\	.	4A-\	f	2ee-\	.	2gg\	.
.	.	.	.	8G\	.	8G\	.	.	.	.	.
.	.	.	.	8r	.	8r	.	.	.	.	.
!	!	!LO:LB:g=original	!	!	!	!	!	!	!	!	!
2e-\	.	2g\	.	4A-\	.	4A-\	.	2g/	.	2ee-\	.
.	.	.	.	8G\	.	8G\	.	.	.	.	.
.	.	.	.	8r	.	8r	.	.	.	.	.
=28	=28	=28	=28	=28	=28	=28	=28	=28	=28	=28	=28
!	!	!	!	!LO:LB:g=original	!	!	!	!	!	!	!
2f\	.	2f\	.	4A-\	.	4A-\	.	2a-\	.	2ff\	.
.	.	.	.	4r	.	4r	.	.	.	.	.
2B-/	.	2f\	.	8BB-/L	.	8BB-/L	.	2f/	.	2dd\	.
.	.	.	.	8C/	.	8C/	.	.	.	.	.
.	.	.	.	8D/	.	8D/	.	.	.	.	.
.	.	.	.	8BB-/J	.	8BB-/J	.	.	.	.	.
=29	=29	=29	=29	=29	=29	=29	=29	=29	=29	=29	=29
!	!	!	!	!	!	!	!	!	!	!LO:TX:b:i:t=Dolce	!
2E-/	.	2e-\	.	2E-\	.	2E-\	.	2e-/	p	2ee-\	.
!	!	!	!	!	!	!	!	!	!	!LO:TX:a:t=problem:niejednoznaczny zapis łuku	!
2r	.	2r	.	2r	.	2r	.	8e-/L	.	(8ee-\L	.
.	.	.	.	.	.	.	.	8f/	.	8ff\	.
.	.	.	.	.	.	.	.	8g/	.	8gg\	.
.	.	.	.	.	.	.	.	8a-/J	.	8aa-\J)	.
=30	=30	=30	=30	=30	=30	=30	=30	=30	=30	=30	=30
4r	.	4r	.	8D\L	.	4d\	.	4b-\	.	4bb-\	.
.	.	.	.	8BB-\	.	.	.	.	.	.	.
4B-/	p	4f\	p	8D\	.	4d\	.	4b-\	.	4bb-\	.
.	.	.	.	8BB-\J	.	.	.	.	.	.	.
4B-/	.	4f\	.	8D\L	.	4d\	.	4b-\	.	4bb-\	.
.	.	.	.	8BB-\	.	.	.	.	.	.	.
4B-/	.	4f\	.	8D\	.	4d\	.	4b-\	.	4bb-\	.
.	.	.	.	8BB-\J	.	.	.	.	.	.	.
=31	=31	=31	=31	=31	=31	=31	=31	=31	=31	=31	=31
!	!	!	!	!	!	!	!	!LO:LB:g=original	!	!	!
2e-\	.	2g\	.	8E-\L	.	2e-\	.	2g/	.	2gg\	.
.	.	.	.	8BB-\	.	.	.	.	.	.	.
.	.	.	.	8E-\	.	.	.	.	.	.	.
.	.	.	.	8BB-\J	.	.	.	.	.	.	.
2r	.	2r	.	8E-\L	.	4e-\	.	4e-/	.	4ee-\	.
.	.	.	.	8BB-\	.	.	.	.	.	.	.
.	.	.	.	8E-\	.	4r	.	8g/L	.	(8gg\L	.
.	.	.	.	8BB-\J	.	.	.	8e-/J	.	8ee-\J)	.
=32	=32	=32	=32	=32	=32	=32	=32	=32	=32	=32	=32
4r	.	4r	.	8D\L	.	1A-	.	4B-/	.	4b-\	.
.	.	.	.	8BB-\	.	.	.	.	.	.	.
4B-/	.	4f\	.	8D\	.	.	.	4B-/	.	4b-\	.
.	.	.	.	8BB-\J	.	.	.	.	.	.	.
4B-/	.	4f\	.	8D\L	.	.	.	4B-/	.	4b-\	.
.	.	.	.	8BB-\	.	.	.	.	.	.	.
4B-/	.	4f\	.	8D\	.	.	.	8c/L	.	8cc\L	.
.	.	.	.	8BB-\J	.	.	.	8d/J	.	8dd\J	.
=33	=33	=33	=33	=33	=33	=33	=33	=33	=33	=33	=33
!LO:LB:g=original	!	!	!	!	!	!LO:LB:g=original	!	!	!	!	!
2E-/	.	2e-\	.	8E-\L	.	2G\	.	2e-/	.	2ee-\	f
.	.	.	.	8BB-\	.	.	.	.	.	.	.
.	.	.	.	8E-\	.	.	.	.	.	.	.
.	.	.	.	8BB-\J	.	.	.	.	.	.	.
!	!	!	!	!LO:LB:g=original	!	!	!	!	!	!	!
2r	.	8e-\L	f	8E-\L	.	4G\	.	2r	.	8ee-\L	.
.	.	8f\	.	8BB-\	.	.	.	.	.	8ff\	.
.	.	8g\	.	8E-\	.	4r	.	.	.	8gg\	.
.	.	8a-\J	.	8BB-\J	.	.	.	.	.	8aa-\J	.
=34	=34	=34	=34	=34	=34	=34	=34	=34	=34	=34	=34
!	!	!	!	!	!	!	!	!	!	!LO:LB:g=original	!
4B-/	.	4b-\	.	8D\L	.	4d\	.	8f/L	f	4bb-\	.
.	.	.	.	8BB-\	.	.	.	8d/	.	.	.
4B-/	.	4b-\	.	8D\	.	4d\	.	8f/	.	4bb-\	.
.	.	.	.	8BB-\J	.	.	.	8d/J	.	.	.
*	*	*	*	*	*	*	*	*rep	*	*	*
4B-/	.	4b-\	.	8D\L	.	4d\	.	8f/L	.	4bb-\	.
.	.	.	.	8BB-\	.	.	.	8d/	.	.	.
4B-/	.	4b-\	.	8D\	.	4d\	.	8f/	.	4bb-\	.
.	.	.	.	8BB-\J	.	.	.	8d/J	.	.	.
*	*	*	*	*	*	*	*	*Xrep	*	*	*
=35	=35	=35	=35	=35	=35	=35	=35	=35	=35	=35	=35
2B-/	.	2g\	.	8E-\L	.	1e-	.	8g/L	.	2gg\	.
.	.	.	.	8BB-\	.	.	.	8e-/	.	.	.
.	.	.	.	8E-\	.	.	.	8g/	.	.	.
.	.	.	.	8BB-\J	.	.	.	8e-/J	.	.	.
*	*	*	*	*	*	*	*	*rep	*	*	*
4B-/	.	4e-\	.	8E-\L	.	.	.	8g/L	.	4ee-\	.
.	.	.	.	8BB-\	.	.	.	8e-/	.	.	.
4r	.	4r	.	8E-\	.	.	.	8g/	.	(8gg\L	.
.	.	.	.	8BB-\J	.	.	.	8e-/J	.	8ee-\J)	.
*	*	*	*	*	*	*	*	*Xrep	*	*	*
=36	=36	=36	=36	=36	=36	=36	=36	=36	=36	=36	=36
!	!	!LO:LB:g=original	!	!	!	!	!	!	!	!	!
1B-	.	1f	.	8D\L	.	1A-	.	8f/L	.	4b-\	.
.	.	.	.	8BB-\	.	.	.	8d/	.	.	.
.	.	.	.	8D\	.	.	.	8f/	.	4b-\	.
.	.	.	.	8BB-\J	.	.	.	8d/J	.	.	.
*	*	*	*	*	*	*	*	*rep	*	*	*
.	.	.	.	8D\L	.	.	.	8f/L	.	4b-\	.
.	.	.	.	8BB-\	.	.	.	8d/	.	.	.
.	.	.	.	8D\	.	.	.	8f/	.	(8cc\L	.
.	.	.	.	8BB-\J	.	.	.	8d/J	.	8dd\J)	.
*	*	*	*	*	*	*	*	*Xrep	*	*	*
=37	=37	=37	=37	=37	=37	=37	=37	=37	=37	=37	=37
!	!	!	!	!	!	!	!	!LO:LB:g=original	!	!	!
!	!LO:DY:a	!	!	!	!	!	!	!LO:TX:a:t=problem:niejednoznaczny zapis artykulacji	!	!	!
1E-	p	1e-	p	8E-\L	.	8G\L	.	4g'/	.	4ee-\	.
.	.	.	.	8E-\	.	8E-\	.	.	.	.	.
.	.	.	.	8E-\	.	8E-\	.	4r	.	4r	.
.	.	.	.	8E-\J	.	8E-\J	.	.	.	.	.
.	.	.	.	8E-\L	.	8E-\L	.	8b-\L	p	(8gg\L	p
.	.	.	.	8E-\	.	8E-\	.	8a-\	.	8ff\)	.
.	.	.	.	8E-\	.	8E-\	.	8a-\	.	(8ff\	.
.	.	.	.	8E-\J	.	8E-\J	.	8g\J	.	8ee-\J)	.
=38	=38	=38	=38	=38	=38	=38	=38	=38	=38	=38	=38
!	!	!	!	!	!	!	!LO:HP:t=Cres_	!	!	!	!
1E-	.	1e-	.	8E-\L	.	8E-\L	<	4g\	.	4ee-\	.
.	.	.	.	8E-\	.	8E-\	.	.	.	.	.
.	.	.	.	8E-\	.	8E-\	.	4r	.	4r	.
.	.	.	.	8E-\J	.	8E-\J	.	.	.	.	.
.	.	.	.	8E-\L	.	8E-\L	.	8b-\L	.	(8gg\L	.
.	.	.	.	8E-\	.	8E-\	.	8a-\	.	8ff\)	.
.	.	.	.	8E-\	.	8E-\	.	8a-\	.	(8ff\	.
.	.	.	.	8E-\J	.	8E-\J	.	8g\J	.	8ee-\J)	.
=39	=39	=39	=39	=39	=39	=39	=39	=39	=39	=39	=39
!	!	!	!	!	!LO:HP:t=Cres:	!	!	!	!	!	!
1E-	.	1e-	.	8E-\L	<	8E-\L	.	4g/	.	4ee-\	.
.	.	.	.	8E-\	.	8E-\	.	.	.	.	.
.	.	.	.	8E-\	.	8E-\	.	4r	.	4r	.
.	.	.	.	8E-\J	.	8E-\J	.	.	.	.	.
!	!	!	!	!	!	!	!	!	!	!	!
.	.	.	.	8E-\L	.	8E-\L	.	4gg\	f	4bb-\	.
.	.	.	.	8E-\	.	8E-\	.	.	.	.	.
.	.	.	.	8E-\	.	8E-\	.	4ff\	.	4aa-\	.
.	.	.	.	8E-\J	.	8E-\J	.	.	.	.	.
=40	=40	=40	=40	=40	=40	=40	=40	=40	=40	=40	=40
!	!	!	!	!	!	!	!	!LO:TX:a:t=SIC&colon;s=4ff	!	!	!
1E-	.	1e-	.	8E-\L	.	8E-\L	.	4ff\	.	4gg\	.
.	.	.	.	8E-\	.	8E-\	.	.	.	.	.
!	!	!	!	!	!	!	!	!LO:TX:a:t=SIC&colon;s=4ee	!	!	!
.	.	.	.	8E-\	.	8E-\	.	4ee-\	.	4ff\	.
.	.	.	.	8E-\J	.	8E-\J	.	.	.	.	.
!	!	!	!	!	!	!	!	!LO:TX:a:t=SIC&colon;s=4dd	!	!	!
.	.	.	.	8E-\L	.	8E-\L	.	4dd\	.	4ee-\	.
.	.	.	.	8E-\	.	8E-\	.	.	.	.	.
!	!	!	!	!	!	!	!	!LO:TX:a:t=SIC&colon;s=4cc	!	!	!
.	.	.	.	8E-\	.	8E-\	.	4cc\	.	4dd\	.
.	.	.	.	8E-\J	.	8E-\J	.	.	.	.	.
*	*	*	*	*Xtremolo	*	*Xtremolo	*	*	*	*	*
=41	=41	=41	=41	=41	=41	=41	=41	=41	=41	=41	=41
!	!	!	!	!LO:LB:g=original	!	!LO:LB:g=original	!	!	!	!LO:LB:g=original	!
4E-/	.	4e-\	.	4AA-/	.	4AA-/	.	8a-\L	f	8cc\L	f
.	.	.	.	.	.	.	.	16b-\L	.	16dd\L	.
.	.	.	.	.	.	.	.	16cc\JJ	.	16ee-\JJ	.
4r	.	4r	.	4r	.	4r	.	16dd\LL	.	16ff\LL	.
.	.	.	.	.	.	.	.	16ee-\	.	16gg\	.
.	.	.	.	.	.	.	.	16ff\	.	16aa-\	.
.	.	.	.	.	.	.	.	16gg\JJ	.	16bb-\JJ	.
*	*	*	*	*	*	*	*	*tremolo	*	*tremolo	*
!LO:LB:g=original	!	!	!	!	!	!	!	!	!	!	!
8r	.	8r	.	8r	.	8r	.	8aa-\L	.	8ccc\L	.
8f\L	.	8f\L	f	8D\L	.	8D\L	f	8aa-\	.	8ccc\	.
8f\	.	8f\	.	8D\	.	8D\	.	8aa-\	.	8ccc\	.
8f\J	.	8f\J	.	8D\J	.	8D\J	.	8aa-\J	.	8ccc\J	.
*	*	*	*	*	*	*	*	*	*	*Xtremolo	*
=42	=42	=42	=42	=42	=42	=42	=42	=42	=42	=42	=42
4e-\	.	4e-\	.	4E-\	.	4E-\	.	4gg\	.	4bb-\	.
4r	.	4r	.	4A-\	.	4A-\	.	4ff\	.	4aa-\	.
4e-\	.	4g\	.	4B-\	.	4B-\	.	4ee-\	.	4gg\	.
4B-\	.	4f\	.	4BB-/	.	4BB-/	.	4dd\	.	4ff\	.
=43	=43	=43	=43	=43	=43	=43	=43	=43	=43	=43	=43
!	!	!	!	!	!	!	!	!LO:LB:g=original	!	!	!
8G/L	.	8e-\L	.	8E-\L	.	8E-\L	.	4ee-\	.	4ee-\	.
8B-/	.	8b-\	.	8F\	.	8F\	.	.	.	.	.
8B-/	.	8b-\	.	8G\	.	8G\	.	4r	.	4r	.
8B-/J	.	8b-\J	.	8E-\J	.	8E-\J	.	.	.	.	.
!	!	!	!	!	!	!	!	!	!	!	!LO:DY:t=ffor
2B-/	.	2b-\	.	8BB-/L	.	8BB-/L	.	2a-\	.	2dd\	ff
.	.	.	.	8C/	.	8C/	.	.	.	.	.
.	.	.	.	8D/	.	8D/	.	.	.	.	.
.	.	.	.	8BB-/J	.	8BB-/J	.	.	.	.	.
=44	=44	=44	=44	=44	=44	=44	=44	=44	=44	=44	=44
*tremolo	*	*	*	*	*	*	*	*	*	*	*
8B-/L	.	8b-\L	.	8E-\L	.	8E-\L	.	4g\	.	4ee-\	.
8B-/	.	8b-\	.	8F\	.	8F\	.	.	.	.	.
8B-/	.	8b-\	.	8G\	.	8G\	.	4r	.	4r	.
8B-/J	.	8b-\J	.	8E-\J	.	8E-\J	.	.	.	.	.
8B-/L	.	2b-\	.	8BB-/L	.	8BB-/L	.	2a-\	.	2dd\	f
8B-/	.	.	.	8C/	.	8C/	.	.	.	.	.
8B-/	.	.	.	8D/	.	8D/	.	.	.	.	.
8B-/J	.	.	.	8BB-/J	.	8BB-/J	.	.	.	.	.
=45	=45	=45	=45	=45	=45	=45	=45	=45	=45	=45	=45
4g\	.	4b-\	.	4E-\	.	4E-\	.	4g\	.	4ee-\	.
4f\	.	4b-\	.	4BB-\	.	4BB-\	.	4a-\	.	4dd\	.
4g\	.	4b-\	.	4E-\	.	4E-\	.	4g\	.	4ee-\	.
4f\	.	4b-\	.	4BB-\	.	4BB-\	.	4a-\	.	4dd\	.
=46	=46	=46	=46	=46	=46	=46	=46	=46	=46	=46	=46
!	!	!LO:LB:g=original	!	!LO:LB:g=original	!	!LO:LB:g=original	!	!	!	!	!
4e-\	.	4b-\	.	4E-\	.	4E-\	.	4g\	.	4ee-\	.
4e-\	.	4b-\	.	4E-\	.	4E-\	.	4g\	.	4ee-\	.
4e-\	.	4b-\	.	4E-\	.	4E-\	.	4g\	.	4ee-\	.
!LO:TX:a:t=46	!	!LO:TX:a:t=46	!	!LO:TX:a:t=46	!	!	!	!	!	!LO:TX:a:t=46	!
!	!	!	!	!	!	!	!	!LO:TX:a:t=46	!	!	!
4r	.	4r	.	4r	.	4r	.	4r	.	4r	.
=47:|!|:	=47:|!|:	=47:|!|:	=47:|!|:	=47:|!|:	=47:|!|:	=47:|!|:	=47:|!|:	=47:|!|:	=47:|!|:	=47:|!|:	=47:|!|:
!LO:LB:g=original	!	!	!	!	!	!	!	!	!	!	!
*>B	*	*>B	*	*>B	*	*>B	*	*>B	*	*>B	*
!LO:TX:a:t=1	!	!LO:TX:a:t=1	!	!	!	!	!LO:HP:t=Cres	!	!	!	!
1r	.	1r	.	1C	.	1C	<	2cc\	.	[2cc\	f
.	.	.	.	.	.	.	.	8cc\L	.	8cc\L]	.
.	.	.	.	.	.	.	.	8bX\	.	8dd\	.
!	!	!	!	!	!	!	!	!	!	!LO:TX:a:t=SIC&colon;s=8ff#	!
.	.	.	.	.	.	.	.	8cc\	.	8ee-\	.
!	!	!	!	!	!	!	!	!	!	!LO:TX:a:t=SIC&colon;s=8ggn	!
.	.	.	.	.	.	.	.	8dd\J	.	8ff#X\J	.
=48	=48	=48	=48	=48	=48	=48	=48	=48	=48	=48	=48
!	!	!	!	!	!	!	!	!	!	!LO:LB:g=original	!
4g\	.	4g\	.	4C/	.	4C/	f	4eeX\	.	4gg\	.
4g\	.	4g\	.	4C/	.	4C/	.	4ee\	.	4gg\	.
4g\	.	4g\	.	4C/	.	4C/	.	4ee\	.	4gg\	.
4r	.	4r	.	4r	.	4r	.	4r	.	4r	.
=49	=49	=49	=49	=49	=49	=49	=49	=49	=49	=49	=49
!LO:TX:a:t=2	!	!LO:TX:a:t=2	!	!	!	!	!	!	!	!	!
0r	.	0r	.	4f\	f	4f\	.	4cc\	p	4aa-\	p
.	.	.	.	4en\	.	4en\	.	4cc\	.	4gg\	.
.	.	.	.	4f\	.	4f\	.	4cc\	.	4aa-\	.
.	.	.	.	4e\	.	4e\	.	4cc\	.	4gg\	.
=50	=50	=50	=50	=50	=50	=50	=50	=50	=50	=50	=50
!	!	!	!	!	!	!	!	!LO:LB:g=original	!	!	!
.	.	.	.	4f\	.	4f\	.	4cc\	.	4aa-\	.
.	.	.	.	16c\LL	.	16c\LL	.	4cc\	.	4aa-\	.
.	.	.	.	16B-\	.	16B-\	.	.	.	.	.
.	.	.	.	16A-\	.	16A-\	.	.	.	.	.
.	.	.	.	16G\JJ	.	16G\JJ	.	.	.	.	.
.	.	.	.	4F\	.	4F\	.	4cc\	.	4aa-\	.
.	.	.	.	4r	.	4r	.	4r	.	4r	.
=51	=51	=51	=51	=51	=51	=51	=51	=51	=51	=51	=51
1B-	.	1B-	f	1BB-	.	1BB-	.	2dn/	.	2b-\	f
.	.	.	.	.	.	.	.	8b-\L	f	8b-\L	.
.	.	.	.	.	.	.	.	8a\	.	8cc\	.
.	.	.	.	.	.	.	.	8b-\	.	8dd\	.
.	.	.	.	.	.	.	.	8cc\J	.	8ee-X\J	.
=52	=52	=52	=52	=52	=52	=52	=52	=52	=52	=52	=52
4B-/	f	4f\	.	4BB-/	.	4BB-/	.	4dd\	.	4ff\	.
4B-/	.	4f\	.	4BB-/	.	4BB-/	.	4dd\	.	4ff\	.
4B-/	.	4f\	.	4BB-/	.	4BB-/	.	4dd\	.	4ff\	.
4r	.	4r	.	4r	.	4r	.	4r	.	4r	.
=53	=53	=53	=53	=53	=53	=53	=53	=53	=53	=53	=53
!	!	!	!	!LO:LB:g=original	!	!LO:LB:g=original	!	!	!	!	!
4e-\	.	4e-\	p	4E-\	.	4e-\	.	4ee-\	.	4gg\	p
4B-\	.	4f\	.	4BB-\	.	4B-\	.	4dd\	.	4gg\	.
4e-\	.	4e-\	.	4E-\	.	4e-\	.	4ee-\	.	4gg\	.
4B-\	.	4f\	.	4BB-\	.	4B-\	.	4dd\	.	4ff\	.
=54	=54	=54	=54	=54	=54	=54	=54	=54	=54	=54	=54
4E-/	.	4e-\	.	4E-\	.	4e-\	.	4ee-\	.	4gg\	.
4E-/	.	4e-\	.	16BB-/LL	.	16B-\LL	.	4ee-\	.	4gg\	.
.	.	.	.	16AA-/	.	16A-\	.	.	.	.	.
.	.	.	.	16GG/	.	16G\	.	.	.	.	.
.	.	.	.	16FF/JJ	.	16F\JJ	.	.	.	.	.
4E-/	.	4e-\	.	4EE-/	.	4E-\	.	4ee-\	.	4gg\	.
4r	.	4r	.	4r	.	4r	.	4r	.	4r	.
*	*	*	*	*	*	*	*	*Xtremolo	*	*	*
=55	=55	=55	=55	=55	=55	=55	=55	=55	=55	=55	=55
!LO:LB:g=original	!	!LO:LB:g=original	!	!	!	!	!	!	!	!LO:LB:g=original	!
1BB-	.	1B-	.	4E-\	p	4E-\	p	8G/L	p	2bb-\	.
.	.	.	.	.	.	.	.	8B-/	.	.	.
.	.	.	.	4r	.	4r	.	8G/	.	.	.
.	.	.	.	.	.	.	.	8B-/J	.	.	.
*	*	*	*	*	*	*	*	*rep	*	*	*
.	.	.	.	4E-\	.	4E-\	.	8G/L	.	8aa-\L	.
.	.	.	.	.	.	.	.	8B-/	.	8gg\	.
.	.	.	.	4r	.	4r	.	8G/	.	8ff\	.
.	.	.	.	.	.	.	.	8B-/J	.	8ee-\J	.
*	*	*	*	*	*	*	*	*Xrep	*	*	*
=56	=56	=56	=56	=56	=56	=56	=56	=56	=56	=56	=56
!	!	!	!	!	!	!	!	!LO:LB:g=original	!	!	!
1BB-	.	1B-	.	4F\	.	4F\	.	8A-/L	.	8ee-\L	.
.	.	.	.	.	.	.	.	8B-/	.	8dd\	.
.	.	.	.	4r	.	4r	.	8A-/	.	8cc\	.
.	.	.	.	.	.	.	.	8B-/J	.	8b-\J	.
*	*	*	*	*	*	*	*	*rep	*	*	*
.	.	.	.	4BB-/	.	4BB-/	.	8A-/L	.	2b-\	.
.	.	.	.	.	.	.	.	8B-/	.	.	.
.	.	.	.	4r	.	4r	.	8A-/	.	.	.
.	.	.	.	.	.	.	.	8B-/J	.	.	.
*	*	*	*	*	*	*	*	*Xrep	*	*	*
=57	=57	=57	=57	=57	=57	=57	=57	=57	=57	=57	=57
!LO:TX:a:t=2	!	!LO:TX:a:t=2	!	!LO:TX:a:t=Bis	!	!	!	!	!	!	!
0r	.	0r	.	4EE-/	.	4E-\	.	8G/L	.	8ee-\L	.
.	.	.	.	.	.	.	.	8B-/	.	8dd\	.
.	.	.	.	4r	.	4r	.	8G/	.	8ee-\	.
.	.	.	.	.	.	.	.	8B-/J	.	8ff\J	.
*	*	*	*	*	*	*	*	*rep	*	*	*
.	.	.	.	4E-\	.	4E-\	.	8G/L	.	8gg\L	.
.	.	.	.	.	.	.	.	8B-/	.	8ff\	.
.	.	.	.	4r	.	4r	.	8G/	.	8gg\	.
.	.	.	.	.	.	.	.	8B-/J	.	8aa-\J	.
*	*	*	*	*	*	*	*	*Xrep	*	*	*
=58	=58	=58	=58	=58	=58	=58	=58	=58	=58	=58	=58
.	.	.	.	.	.	.	.	.	.	16qqgg/	.
.	.	.	.	4BB-/	.	4BB-/	.	8A-/L	.	2ff\	.
.	.	.	.	.	.	.	.	8B-/	.	.	.
.	.	.	.	4r	.	4r	.	8A-/	.	.	.
.	.	.	.	.	.	.	.	8B-/J	.	.	.
*	*	*	*	*	*	*	*	*rep	*	*	*
.	.	.	.	4BBB-/	.	4BB-/	.	8A-/L	.	8ee-\L	.
.	.	.	.	.	.	.	.	8B-/	.	8dd\	.
.	.	.	.	4r	.	4r	.	8A-/	.	8cc\	.
.	.	.	.	.	.	.	.	8B-/J	.	8b-\J	.
*	*	*	*	*	*	*	*	*Xrep	*	*	*
=59	=59	=59	=59	=59	=59	=59	=59	=59	=59	=59	=59
!	!	!	!	!LO:TX:a:t=problem:repetycja tt. 55-58	!	!LO:TX:a:t=problem: repetycja tt. 55-58	!	!	!	!	!
1BB-	.	1B-	.	4E-\yy	p	4E-\yy	p	8G/L	.	2bb-\	.
.	.	.	.	.	.	.	.	8B-/	.	.	.
.	.	.	.	4ryy	.	4ryy	.	8G/	.	.	.
.	.	.	.	.	.	.	.	8B-/J	.	.	.
*	*	*	*	*	*	*	*	*rep	*	*	*
.	.	.	.	4E-\yy	.	4E-\yy	.	8G/L	.	8aa-\L	.
.	.	.	.	.	.	.	.	8B-/	.	8gg\	.
.	.	.	.	4ryy	.	4ryy	.	8G/	.	8ff\	.
.	.	.	.	.	.	.	.	8B-/J	.	8ee-\J	.
*	*	*	*	*	*	*	*	*Xrep	*	*	*
=60	=60	=60	=60	=60	=60	=60	=60	=60	=60	=60	=60
1BB-	.	1B-	.	4F\yy	.	4F\yy	.	8A-/L	.	8ee-\L	.
.	.	.	.	.	.	.	.	8B-/	.	8dd\	.
.	.	.	.	4ryy	.	4ryy	.	8A-/	.	8cc\	.
.	.	.	.	.	.	.	.	8B-/J	.	8b-\J	.
*	*	*	*	*	*	*	*	*rep	*	*	*
.	.	.	.	4BB-/yy	.	4BB-/yy	.	8A-/L	.	2b-\	.
.	.	.	.	.	.	.	.	8B-/	.	.	.
.	.	.	.	4ryy	.	4ryy	.	8A-/	.	.	.
.	.	.	.	.	.	.	.	8B-/J	.	.	.
*	*	*	*	*	*	*	*	*Xrep	*	*	*
=61	=61	=61	=61	=61	=61	=61	=61	=61	=61	=61	=61
!LO:TX:a:t=2	!	!LO:TX:a:t=2	!	!	!	!	!	!LO:LB:g=original	!	!LO:LB:g=original	!
0r	.	0r	.	4EE-/yy	.	4E-\yy	.	8G/L	.	8ee-\L	.
.	.	.	.	.	.	.	.	8B-/	.	8dd\	.
.	.	.	.	4ryy	.	4ryy	.	8G/	.	8ee-\	.
.	.	.	.	.	.	.	.	8B-/J	.	8ff\J	.
*	*	*	*	*	*	*	*	*rep	*	*	*
.	.	.	.	4E-\yy	.	4E-\yy	.	8G/L	.	8gg\L	.
.	.	.	.	.	.	.	.	8B-/	.	8ff\	.
.	.	.	.	4ryy	.	4ryy	.	8G/	.	8gg\	.
.	.	.	.	.	.	.	.	8B-/J	.	8aa-\J	.
*	*	*	*	*	*	*	*	*Xrep	*	*	*
=62	=62	=62	=62	=62	=62	=62	=62	=62	=62	=62	=62
.	.	.	.	.	.	.	.	.	.	16qqgg/	.
.	.	.	.	4BB-/yy	.	4BB-/yy	.	8A-/L	.	2ff\	.
.	.	.	.	.	.	.	.	8B-/	.	.	.
.	.	.	.	4ryy	.	4ryy	.	8A-/	.	.	.
.	.	.	.	.	.	.	.	8B-/J	.	.	.
*	*	*	*	*	*	*	*	*rep	*	*	*
.	.	.	.	4BBB-/yy	.	4BB-/yy	.	8A-/L	.	8ee-\L	.
.	.	.	.	.	.	.	.	8B-/	.	8dd\	.
.	.	.	.	4ryy	.	4ryy	.	8A-/	.	8cc\	.
.	.	.	.	.	.	.	.	8B-/J	.	8b-\J	.
*	*	*	*	*	*	*	*	*Xrep	*	*	*
=63	=63	=63	=63	=63	=63	=63	=63	=63	=63	=63	=63
!	!	!	!	!	!	!LO:LB:g=original	!	!	!	!	!
1e-	f	1g	.	4E-\	.	4e-\	f	8G/	.	8ee-\	f
.	.	.	.	.	.	.	.	4g/	f	4ee-\	.
.	.	.	.	4BB-\	.	4B-\	.	.	.	.	.
.	.	.	.	.	.	.	.	4g/	.	4ee-\	.
!	!	!	!	!LO:TX:a:t=SIC&colon;s=4GG	!	!	!	!	!	!	!
.	.	.	.	4AA-/	.	4G\	.	.	.	.	.
.	.	.	.	.	.	.	.	4g/	.	4ee-\	.
.	.	.	.	4EE-/	.	4E-\	.	.	.	.	.
.	.	.	.	.	.	.	.	8g/	.	8ee-\	.
=64	=64	=64	=64	=64	=64	=64	=64	=64	=64	=64	=64
!	!	!	!	!LO:LB:g=original	!	!	!	!	!	!	!
1g	.	1g	.	4C\	.	4C\	.	8b-\	f	8eeX\	f
.	.	.	.	.	.	.	.	4b-\	.	4ee\	.
.	.	.	.	4G\	.	4G\	.	.	.	.	.
.	.	.	.	.	.	.	.	4b-\	.	4ee\	.
.	.	.	.	4En\	.	4En\	.	.	.	.	.
.	.	.	.	.	.	.	.	4b-\	.	4ee\	.
.	.	.	.	4C\	.	4C\	.	.	.	.	.
.	.	.	.	.	.	.	.	8b-\	.	8ee\	.
=65	=65	=65	=65	=65	=65	=65	=65	=65	=65	=65	=65
4f\	.	4f\	.	4F\	.	4F\	.	8a-\	f	8ff\	.
.	.	.	.	.	.	.	.	4a-\	.	4ff\	.
4r	.	4r	.	4C/	.	4C/	.	.	.	.	.
.	.	.	.	.	.	.	.	4a-\	.	4ff\	.
2r	.	2r	.	4AA-/	.	4AA-/	.	.	.	.	.
.	.	.	.	.	.	.	.	4a-\	.	4ff\	.
.	.	.	.	4FF/	.	4FF/	.	.	.	.	.
.	.	.	.	.	.	.	.	8a-\	.	8ff\	.
=66	=66	=66	=66	=66	=66	=66	=66	=66	=66	=66	=66
!	!	!	!	!	!	!LO:TX:a:t=SIC&colon;s=4D	!	!LO:LB:g=original	!	!	!
1aX	.	1aX	.	4D\	.	4F\	.	8cc\	f	8ff#X\	.
.	.	.	.	.	.	.	.	4cc\	.	4ff#\	.
.	.	.	.	4An\	.	4An\	.	.	.	.	.
.	.	.	.	.	.	.	.	4cc\	.	4ff#\	.
.	.	.	.	4F#X\	.	4F#X\	.	.	.	.	.
.	.	.	.	.	.	.	.	4cc\	.	4ff#\	.
.	.	.	.	4D\	.	4D\	.	.	.	.	.
.	.	.	.	.	.	.	.	8cc\	.	8ff#\	.
=67	=67	=67	=67	=67	=67	=67	=67	=67	=67	=67	=67
*	*	*	*	*tremolo	*	*tremolo	*	*	*	*	*
!	!	!	!	!	!	!	!	!	!	!LO:LB:g=original	!
4g\	.	4g\	.	8G\L	.	8G\L	p	2bX\	p	2gg\	p
.	.	.	.	8G\	.	8G\	.	.	.	.	.
4r	.	4r	.	8G\	.	8G\	.	.	.	.	.
.	.	.	.	8G\J	.	8G\J	.	.	.	.	.
2r	.	2r	.	8G\L	.	8G\L	.	2dd\	.	2ff\	.
.	.	.	.	8G\	.	8G\	.	.	.	.	.
.	.	.	.	8G\	.	8G\	.	.	.	.	.
.	.	.	.	8G\J	.	8G\J	.	.	.	.	.
=68	=68	=68	=68	=68	=68	=68	=68	=68	=68	=68	=68
!LO:LB:g=original	!	!	!	!	!	!	!	!	!	!	!
!LO:TX:a:t=3.	!	!LO:TX:a:t=3.	!	!	!	!	!	!	!	!	!
0r	.	1r	.	8GG/L	.	8G\L	.	2cc\	.	2ee-\	.
.	.	.	.	8GG/	.	8G\	.	.	.	.	.
.	.	.	.	8GG/	.	8G\	.	.	.	.	.
.	.	.	.	8GG/J	.	8G\J	.	.	.	.	.
.	.	.	.	8GG/L	.	8G\L	.	2bX\	.	2dd\	.
.	.	.	.	8GG/	.	8G\	.	.	.	.	.
.	.	.	.	8GG/	.	8G\	.	.	.	.	.
.	.	.	.	8GG/J	.	8G\J	.	.	.	.	.
*	*	*	*	*Xtremolo	*	*Xtremolo	*	*	*	*	*
=69	=69	=69	=69	=69	=69	=69	=69	=69	=69	=69	=69
!	!	!	!	!	!	!LO:LB:g=original	!	!	!	!	!
.	.	1r	.	4AA-X/	f	4A-X\	.	4cc\	.	4cc\	.
.	.	.	.	4AA-/	.	4A-\	.	2ee-\	.	2ccc\	.
.	.	.	.	4GG/	.	4G\	.	.	.	.	.
.	.	.	.	4FF#X/	.	4F#X\	.	4ee-\	.	4ccc\	.
=70	=70	=70	=70	=70	=70	=70	=70	=70	=70	=70	=70
1r;	.	1r;	.	2GG;/	.	2G;\	.	2dd;\	.	2bbX;<\	.
.	.	.	.	2r	.	2r	.	2r	.	2r	.
=71	=71	=71	=71	=71	=71	=71	=71	=71	=71	=71	=71
!	!	!LO:LB:g=original	!	!	!	!	!	!	!	!	!
2G/	.	2e-\	.	4.C/	f	4.C/	.	4.e-/	f	4.cc\	f
.	.	.	.	8BBn/	.	8BBn/	.	8d/	.	8bX\	.
4G/	.	4e-\	.	8C/L	.	8C/L	.	8e-/L	.	8cc\L	.
.	.	.	.	8BB/	.	8BB/	.	8d/	.	8b\	.
4G/	.	4e-\	.	8C/	.	8C/	.	8e-/	.	8cc\	.
.	.	.	.	8BB/J	.	8BB/J	.	8d/J	.	8b\J	.
=72	=72	=72	=72	=72	=72	=72	=72	=72	=72	=72	=72
!	!	!	!	!LO:LB:g=original	!	!	!	!	!	!	!
4G/	.	4e-\	.	4C/	.	4C/	.	4e-/	.	8cc\L	p
.	.	.	.	.	.	.	.	.	.	8dd\	.
4r	.	4r	.	4r	.	4r	.	4r	.	8ee-\	.
.	.	.	.	.	.	.	.	.	.	8ff\J	.
2r	.	2r	.	2r	.	2r	.	2r	.	8gg\L	.
.	.	.	.	.	.	.	.	.	.	8ff\	.
.	.	.	.	.	.	.	.	.	.	8ee-\	.
.	.	.	.	.	.	.	.	.	.	8dd\J	.
=73	=73	=73	=73	=73	=73	=73	=73	=73	=73	=73	=73
!	!	!	!	!	!	!	!	!LO:LB:g=original	!	!	!
2G/	.	2e-\	.	4.C/	.	4.C/	.	4.e-/	f	4.cc\	f
.	.	.	.	8BBn/	.	8BBn/	.	8d/	.	8bX\	.
4G/	.	4e-\	.	8C/L	.	8C/L	.	8e-/L	.	8cc\L	.
.	.	.	.	8BB/	.	8BB/	.	8d/	.	8b\	.
4G/	.	4e-\	.	8C/	.	8C/	.	8e-/	.	8cc\	.
.	.	.	.	8BB/J	.	8BB/J	.	8d/J	.	8b\J	.
=74	=74	=74	=74	=74	=74	=74	=74	=74	=74	=74	=74
!	!	!	!	!	!	!LO:LB:g=original	!	!	!	!LO:LB:g=original	!
4G/	.	4e-\	.	4C/	.	4C/	.	1e-	.	8cc\L	.
.	.	.	.	.	.	.	.	.	.	8dd\	.
4r	.	4r	.	4r	.	4r	.	.	.	8ee-\	.
.	.	.	.	.	.	.	.	.	.	8ff\J	.
2r	.	2r	.	2r	.	2r	.	.	.	8gg\L	.
.	.	.	.	.	.	.	.	.	.	8aa-\	.
.	.	.	.	.	.	.	.	.	.	8bbX\	.
.	.	.	.	.	.	.	.	.	.	8ccc\J	.
=75	=75	=75	=75	=75	=75	=75	=75	=75	=75	=75	=75
*	*	*	*	*tremolo	*	*tremolo	*	*	*	*	*
!LO:TX:a:t=2	!	!LO:TX:a:t=2	!	!	!	!	!	!	!	!	!
0r	.	0r	.	8C/L	p	8c\L	.	2ff\	.	2aa-\	.
.	.	.	.	8C/	.	8c\	.	.	.	.	.
.	.	.	.	8C/	.	8c\	.	.	.	.	.
.	.	.	.	8C/J	.	8c\J	.	.	.	.	.
.	.	.	.	8C/L	.	8c\L	.	2dd\	.	2ff\	.
.	.	.	.	8C/	.	8c\	.	.	.	.	.
.	.	.	.	8C/	.	8c\	.	.	.	.	.
.	.	.	.	8C/J	.	8c\J	.	.	.	.	.
=76	=76	=76	=76	=76	=76	=76	=76	=76	=76	=76	=76
!	!	!	!	!	!	!	!	!	!	!LO:N:vis=4	!
.	.	.	.	8C/L	.	8c\L	.	2ee-\	.	2gg\	.
.	.	.	.	8C/	.	8c\	.	.	.	.	.
.	.	.	.	8C/	.	8c\	.	.	.	.	.
.	.	.	.	8C/J	.	8c\J	.	.	.	.	.
.	.	.	.	8C/L	.	8c\L	.	2cc\	.	2ee-\	.
.	.	.	.	8C/	.	8c\	.	.	.	.	.
.	.	.	.	8C/	.	8c\	.	.	.	.	.
.	.	.	.	8C/J	.	8c\J	.	.	.	.	.
=77	=77	=77	=77	=77	=77	=77	=77	=77	=77	=77	=77
4r	.	4r	.	8GG/L	.	8G\L	.	4bX\	.	4dd\	.
.	.	.	.	8GG/	.	8G\	.	.	.	.	.
4G/	.	4g\	.	8GG/	.	8G\	.	4cc\	.	4ee-\	.
.	.	.	.	8GG/J	.	8G\J	.	.	.	.	.
!	!	!	!	!	!	!	!	!	!	!LO:TX:a:t=problem:niejednoznaczny zapis przednutki	!
.	.	.	.	.	.	.	.	16qqee-/	.	16qqgg/	.
4G/	.	4g\	.	8GG/L	.	8G\L	.	4dd\	.	4ff\	.
.	.	.	.	8GG/	.	8G\	.	.	.	.	.
4G/	.	4g\	.	8GG/	.	8G\	.	8cc\L	.	8ee-\L	.
.	.	.	.	8GG/J	.	8G\J	.	8b\J	.	8dd\J	.
=78	=78	=78	=78	=78	=78	=78	=78	=78	=78	=78	=78
!LO:LB:g=original	!	!	!	!	!	!	!	!	!	!	!
4G/	.	4g\	.	8C/L	.	8C/L	.	2cc\	.	2ee-\	f
.	.	.	.	8C/	.	8C/	.	.	.	.	.
4r	.	4r	.	8C/	.	8C/	.	.	.	.	.
.	.	.	.	8C/J	.	8C/J	.	.	.	.	.
2r	.	2r	.	8C/L	.	8C/L	.	8cc\L	f	8ee-\L	.
.	.	.	.	8C/	.	8C/	.	8cc\	.	8eeX\	.
.	.	.	.	8C/	.	8C/	.	8dd\	.	8ff\	.
.	.	.	.	8C/J	.	8C/J	.	8ee-\J	.	8gg\J	.
=79	=79	=79	=79	=79	=79	=79	=79	=79	=79	=79	=79
!LO:TX:a:t=4	!	!LO:TX:a:t=4	!	!	!	!	!	!	!	!	!
00r	.	00r	.	8C/L	.	8c\L	.	2ff\	.	2aa-\	.
.	.	.	.	8C/	.	8c\	.	.	.	.	.
.	.	.	.	8C/	.	8c\	.	.	.	.	.
.	.	.	.	8C/J	.	8c\J	.	.	.	.	.
.	.	.	.	8C/L	.	8c\L	.	2dd\	.	2ff\	.
.	.	.	.	8C/	.	8c\	.	.	.	.	.
.	.	.	.	8C/	.	8c\	.	.	.	.	.
.	.	.	.	8C/J	.	8c\J	.	.	.	.	.
=80	=80	=80	=80	=80	=80	=80	=80	=80	=80	=80	=80
.	.	.	.	8C/L	.	8c\L	.	2ee-\	.	2gg\	.
.	.	.	.	8C/	.	8c\	.	.	.	.	.
.	.	.	.	8C/	.	8c\	.	.	.	.	.
.	.	.	.	8C/J	.	8c\J	.	.	.	.	.
.	.	.	.	8C/L	.	8c\L	.	2cc\	.	2ee-\	.
.	.	.	.	8C/	.	8c\	.	.	.	.	.
.	.	.	.	8C/	.	8c\	.	.	.	.	.
.	.	.	.	8C/J	.	8c\J	.	.	.	.	.
=81	=81	=81	=81	=81	=81	=81	=81	=81	=81	=81	=81
!	!	!	!	!	!	!LO:LB:g=original	!	!LO:LB:g=original	!	!	!
.	.	.	.	8F\L	.	8F\L	.	1cc	.	2.dd\	.
.	.	.	.	8F\	.	8F\	.	.	.	.	.
.	.	.	.	8F\	.	8F\	.	.	.	.	.
.	.	.	.	8F\J	.	8F\J	.	.	.	.	.
*	*	*	*	*Xtremolo	*	*Xtremolo	*	*	*	*	*
.	.	.	.	8F\L	.	8F\L	.	.	.	.	.
.	.	.	.	8F\	.	8F\	.	.	.	.	.
.	.	.	.	8G\	.	8G\	.	.	.	4eeX\	.
.	.	.	.	8G\J	.	8G\J	.	.	.	.	.
=82	=82	=82	=82	=82	=82	=82	=82	=82	=82	=82	=82
!	!	!	!	!LO:LB:g=original	!	!	!	!	!	!	!
.	.	.	.	8A-\L	.	8A-\L	.	2cc\	.	4ff\	f
.	.	.	.	8A-\	.	8A-\	.	.	.	.	.
.	.	.	.	8G\	.	8G\	.	.	.	4gg\	.
.	.	.	.	8G\J	.	8G\J	.	.	.	.	.
*	*	*	*	*tremolo	*	*tremolo	*	*	*	*	*
.	.	.	.	8F\L	.	8F\L	.	8cc\L	.	2aa-\	.
.	.	.	.	8F\	.	8F\	.	8cc\	.	.	.
.	.	.	.	8F\	.	8F\	.	8bX\	.	.	.
.	.	.	.	8F\J	.	8F\J	.	8cc\J	.	.	.
*	*	*	*	*Xtremolo	*	*Xtremolo	*	*	*	*	*
=83	=83	=83	=83	=83	=83	=83	=83	=83	=83	=83	=83
2G/	.	2g\	.	4E-\	.	4E-\	.	4cc\	.	4gg\	.
.	.	.	.	4C\	.	4C\	.	8cc\L	.	8ff\L	.
.	.	.	.	.	.	.	.	8ee-\J	.	8gg\J	.
4G/	.	4g\	.	4G\	.	4G\	.	8ee-\L	.	8gg\L	.
.	.	.	.	.	.	.	.	8dd\	.	8ff\	.
4G/	.	4g\	.	4GG/	.	4GG/	.	8cc\	.	8ee-\	.
.	.	.	.	.	.	.	.	8bX\J	.	8dd\J	.
=84	=84	=84	=84	=84	=84	=84	=84	=84	=84	=84	=84
4G/	.	4g\	.	2C\	.	2c\	.	2cc\	.	2cc\	.
4r	.	4r	.	.	.	.	.	.	.	.	.
2r	.	2r	.	8C\L	.	8c\L	.	2r	.	2r	.
.	.	.	.	8D\	.	8d\	.	.	.	.	.
.	.	.	.	8E-\	.	8e-\	.	.	.	.	.
.	.	.	.	8F\J	.	8f\J	.	.	.	.	.
=85	=85	=85	=85	=85	=85	=85	=85	=85	=85	=85	=85
!	!	!LO:LB:g=original	!	!	!	!	!	!	!	!	!
!LO:TX:a:t=4	!	!LO:TX:a:t=4	!	!	!	!	!	!LO:TX:a:t=3	!	!LO:TX:a:t=3	!
00r	.	00r	.	4G\	.	4g\	.	0r	.	0r	.
.	.	.	.	4G\	.	4g\	.	.	.	.	.
.	.	.	.	4G\	.	4g\	.	.	.	.	.
.	.	.	.	4G\	.	4g\	.	.	.	.	.
=86	=86	=86	=86	=86	=86	=86	=86	=86	=86	=86	=86
.	.	.	.	2E-\	.	2e-\	.	.	.	.	.
.	.	.	.	4C\	.	4c\	.	.	.	.	.
.	.	.	.	8E-\L	.	8e-\L	.	.	.	.	.
.	.	.	.	8C\J	.	8c\J	.	.	.	.	.
=87	=87	=87	=87	=87	=87	=87	=87	=87	=87	=87	=87
!	!	!	!	!	!	!LO:LB:g=original	!	!	!	!	!
.	.	.	.	4GG/	.	4G\	.	1r	.	1r	.
.	.	.	.	4GG/	.	4G\	.	.	.	.	.
.	.	.	.	4GG/	.	4G\	.	.	.	.	.
.	.	.	.	8AAn/L	.	8An\L	.	.	.	.	.
.	.	.	.	8BBn/J	.	8Bn\J	.	.	.	.	.
=88	=88	=88	=88	=88	=88	=88	=88	=88	=88	=88	=88
.	.	.	.	2C\	.	2c\	.	2r	.	2r	.
.	.	.	.	2r	.	2r	.	8c/L	f	8cc\L	f
.	.	.	.	.	.	.	.	8d/	.	8dd\	.
.	.	.	.	.	.	.	.	8e-/	.	8ee-\	.
.	.	.	.	.	.	.	.	8f/J	.	8ff\J	.
=89	=89	=89	=89	=89	=89	=89	=89	=89	=89	=89	=89
*	*	*	*	*tremolo	*	*	*	*	*	*	*
4G/	.	4g\	.	8BBn/L	.	4d\	.	4g/	.	4gg\	.
.	.	.	.	8GG/	.	.	.	.	.	.	.
4G/	.	4g\	.	8BB/	.	4d\	.	4g/	.	4gg\	.
.	.	.	.	8GG/J	.	.	.	.	.	.	.
*	*	*	*	*rep	*	*	*	*	*	*	*
4G/	.	4g\	.	8BB/L	.	4d\	.	4g/	.	4gg\	.
.	.	.	.	8GG/	.	.	.	.	.	.	.
4G/	.	4g\	.	8BB/	.	4d\	.	4g/	.	4gg\	.
.	.	.	.	8GG/J	.	.	.	.	.	.	.
*	*	*	*	*Xrep	*	*	*	*	*	*	*
=90	=90	=90	=90	=90	=90	=90	=90	=90	=90	=90	=90
!	!	!	!	!LO:LB:g=original	!	!	!	!	!	!LO:LB:g=original	!
1G	.	1g	.	8C/L	.	2.e-\	.	2e-/	.	2ee-\	.
.	.	.	.	8GG/	.	.	.	.	.	.	.
.	.	.	.	8C/	.	.	.	.	.	.	.
.	.	.	.	8GG/J	.	.	.	.	.	.	.
*	*	*	*	*rep	*	*	*	*	*	*	*
.	.	.	.	8C/L	.	.	.	4c/	.	4cc\	.
.	.	.	.	8GG/	.	.	.	.	.	.	.
.	.	.	.	8C/	.	4e-\	.	8e-/L	.	8ee-\L	.
.	.	.	.	8GG/J	.	.	.	8c/J	.	8cc\J	.
*	*	*	*	*Xrep	*	*	*	*	*	*	*
=91	=91	=91	=91	=91	=91	=91	=91	=91	=91	=91	=91
!	!	!	!	!	!	!	!	!LO:LB:g=original	!	!	!
4f\	.	4g\	.	8BBn/L	.	4d\	.	4G/	.	4g/	.
.	.	.	.	8GG/	.	.	.	.	.	.	.
4f\	.	4g\	.	8BB/	.	4d\	.	4G/	.	4g/	.
.	.	.	.	8GG/J	.	.	.	.	.	.	.
*	*	*	*	*rep	*	*	*	*	*	*	*
4f\	.	4g\	.	8BB/L	.	4d\	.	4G/	.	4g/	.
.	.	.	.	8GG/	.	.	.	.	.	.	.
!	!	!	!	!	!	!	!	!LO:TX:a:t=SIC&colon;s=8Bn	!	!	!
4f\	.	4g\	.	8BB/	.	4d\	.	8A-/L	.	8a/L	.
.	.	.	.	8GG/J	.	.	.	8BX/J	.	8bX/J	.
*	*	*	*	*Xrep	*	*	*	*	*	*	*
=92	=92	=92	=92	=92	=92	=92	=92	=92	=92	=92	=92
!LO:LB:g=original	!	!	!	!	!	!	!	!	!	!	!
4e-\	.	8g\L	.	8C\L	.	8c\L	.	4c/	f	4cc\	f
.	.	8g\	.	8D\	.	8d\	.	.	.	.	.
4r	.	8g\	.	8E-\	.	8e-\	.	4r	.	4r	.
.	.	8g\J	.	8C\J	.	8c\J	.	.	.	.	.
2f\	f	2g\	.	8GG/L	.	8G\L	.	2dd\	.	2bbX\	.
.	.	.	.	8AAn/	.	8An\	.	.	.	.	.
.	.	.	.	8BBn/	.	8Bn\	.	.	.	.	.
.	.	.	.	8GG/J	.	8G\J	.	.	.	.	.
=93	=93	=93	=93	=93	=93	=93	=93	=93	=93	=93	=93
!	!	!	!	!	!	!LO:LB:g=original	!	!	!	!	!
4e-\	.	8g\L	.	8C\L	.	8c\L	.	4cc\	.	4ccc\	.
.	.	8g\	.	8D\	.	8d\	.	.	.	.	.
4r	.	8g\	.	8E-\	.	8e-\	.	4r	.	4r	.
.	.	8g\J	.	8C\J	.	8c\J	.	.	.	.	.
!	!	!	!	!	!	!	!	!	!	!LO:TX:a:t=SIC:s=2ccc#	!
2f\	f	2g\	.	8GG/L	.	8G\L	.	2dd\	.	2bb-\	.
.	.	.	.	8AAn/	.	8An\	.	.	.	.	.
.	.	.	.	8BBn/	.	8Bn\	.	.	.	.	.
.	.	.	.	8GG/J	.	8G\J	.	.	.	.	.
=94	=94	=94	=94	=94	=94	=94	=94	=94	=94	=94	=94
4e-\	.	4g\	.	4C\	.	4c\	.	4ee-\	.	4ccc\	.
4f\	.	4g\	.	4GG/	.	4G\	.	4ff\	.	4bbX\	.
4e-\	.	4g\	.	4C/	.	4c\	.	4ee-\	.	4ccc\	.
4f\	.	4g\	.	4GG/	.	4G\	.	4ff\	.	4bb\	.
=95	=95	=95	=95	=95	=95	=95	=95	=95	=95	=95	=95
!	!	!	!	!LO:LB:g=original	!	!	!	!	!	!	!
4e-\	.	4g\	.	4C/	.	4c\	.	4ee-\	.	4ccc\	.
4e-\	.	4g\	.	4C/	.	4c\	.	4ee-\	.	4ccc\	.
4e-\	.	4g\	.	4C/	.	4c\	.	4ee-\	.	4ccc\	.
!LO:TX:a:t=49	!	!LO:TX:a:t=49	!	!LO:TX:a:t=49	!	!	!	!	!	!LO:TX:a:t=problem:niejednoznaczny zapis kreski taktowej	!
!	!	!	!	!LO:TX:a:t=problem:niejednoznaczny zapis kreski taktowej	!	!LO:TX:a:t=problem:niejednoznaczny zapis kreski taktowej	!	!LO:TX:a:t=problem:niejednoznaczny zapis kreski taktowej	!	!LO:TX:a:t=49	!
4r	.	4r	.	4r	.	4r	.	4r	.	4r	.
=96:||	=96||	=96:||	=96||	=96||	=96||	=96||	=96||	=96||	=96||	=96||	=96||
!LO:LB:g=original	!	!LO:LB:g=original	!	!LO:PB:g=original	!	!LO:PB:g=original	!	!LO:PB:g=original	!	!LO:PB:g=original	!
*>C	*	*>C	*	*>C	*	*>C	*	*>C	*	*>C	*
*k[b-e-a-]	*	*k[b-e-a-]	*	*k[e-b-a-d-]	*	*k[e-b-d-a-]	*	*k[b-e-a-d-]	*	*k[b-e-a-d-]	*
*	*	*	*	*	*	*	*	*	*	*	*
*M3/4	*	*M3/4	*	*M3/4	*	*M3/4	*	*M3/4	*	*M3/4	*
!	!	!	!	!	!	!	!	!LO:TX:a:Bi:t=Soztenutto	!	!LO:TX:a:Bi:t=Soztenutto	!
!	!	!	!	!	!	!	!	!LO:TX:b:i:t=Dolce	!	!LO:TX:b:i:t=Dolce	!
!LO:TX:a:B:t=Andantte	!	!LO:TX:a:B:t=Andante	!	!LO:TX:a:B:t=Andante&colon;	!	!LO:TX:a:B:t=Andantte	!	!LO:TX:a:B:t=Andantto	!	!LO:TX:a:B:t=Andantto	!
2.E-/	.	2.e-\	p	4AA-/	p	4AA-/	p	2cc\	.	2ee-\	.
.	.	.	.	4C/	.	4C/	.	.	.	.	.
.	.	.	.	4E-/	.	4E-/	.	4b-\	.	4dd-\	.
=97	=97	=97	=97	=97	=97	=97	=97	=97	=97	=97	=97
4E-/	.	4e-\	.	2.A-\	.	2.A-\	.	8a-\L	.	8cc\L	.
.	.	.	.	.	.	.	.	8b-\	.	8dd-\	.
4r	.	4r	.	.	.	.	.	8cc\	.	8ee-\	.
.	.	.	.	.	.	.	.	8b-\J	.	8ff\	.
4r	.	4r	.	.	.	.	.	4cc\	.	8gg\	.
.	.	.	.	.	.	.	.	.	.	8aa-\J	.
=98	=98	=98	=98	=98	=98	=98	=98	=98	=98	=98	=98
4r	.	4r	.	2.A-\	.	2.A-\	.	2cc\	p	4aa-\	.
4E-/	.	4e-\	.	.	.	.	.	.	.	4ee-\	.
4E-/	.	4e-\	.	.	.	.	.	4a-\	.	4cc\	.
=99	=99	=99	=99	=99	=99	=99	=99	=99	=99	=99	=99
4E-/	.	4e-\	.	4E-\	.	4E-\	.	8.a-\L	.	8.cc\L	.
.	.	.	.	.	.	.	.	16b-\Jk	.	16dd-\Jk	.
4E-/	.	4e-\	.	4E-\	.	4E-\	.	4g\	.	4b-\	.
4r	.	4r	.	4r	.	4r	.	4r	.	4r	.
=100	=100	=100	=100	=100	=100	=100	=100	=100	=100	=100	=100
!LO:LB:g=original	!	!	!	!	!	!	!	!	!	!	!
2.E-/	.	2.e-\	f	2.EE-/	.	8B-\L	.	2.dd-\	f	2.gg\	f
.	.	.	.	.	.	8A-\	.	.	.	.	.
.	.	.	.	.	.	8G\	.	.	.	.	.
.	.	.	.	.	.	8F\J	.	.	.	.	.
.	.	.	.	.	.	4E-\	.	.	.	.	.
=101	=101	=101	=101	=101	=101	=101	=101	=101	=101	=101	=101
4E-/	.	4e-\	.	4AA-/	.	4A-\	.	8cc\L	.	8aa-\L	.
.	.	.	.	.	.	.	.	8aa-\	.	8ccc\	.
4r	.	4r	.	4r	.	4r	.	8gg\	.	8bb-\	.
.	.	.	.	.	.	.	.	8ff\	.	8aa-\	.
!	!	!LO:TX:a:t=problem:brak pauzy ćwierćnutowej	!	!	!	!	!	!	!	!	!
4r	.	4ryy	.	4r	.	4r	.	8ee-\	.	8gg\	.
.	.	.	.	.	.	.	.	8dd-\J	.	8ff\J	.
=102	=102	=102	=102	=102	=102	=102	=102	=102	=102	=102	=102
!LO:TX:a:t=1	!	!LO:TX:a:t=1	!	!	!	!	!	!LO:LB:g=original	!	!	!
2.r	.	2.r	.	4AA-/	.	4AA-/	.	4cc\	.	4ee-\	.
.	.	.	.	4D-X/	.	4D-X/	.	4b-\	.	4dd-\	.
.	.	.	.	4Dn/	.	4Dn/	.	4a-\	.	4cc\	.
=103	=103	=103	=103	=103	=103	=103	=103	=103	=103	=103	=103
!	!	!	!	!	!	!	!	!	!	!LO:LB:g=original	!
4E-/	.	4e-\	.	4E-\	.	4E-\	.	4a-\	.	16cc\LL	.
.	.	.	.	.	.	.	.	.	.	16dd-\	.
.	.	.	.	.	.	.	.	.	.	16dd\	.
.	.	.	.	.	.	.	.	.	.	16ee-\JJ	.
4E-/	.	4e-\	.	4EE-/	.	4EE-/	.	4g\	.	4b-\	.
!LO:TX:a:t=8	!	!LO:TX:a:t=8	!	!LO:TX:a:t=8	!	!	!	!LO:TX:a:t=8	!	!LO:TX:a:t=8	!
4r	.	4r	.	4r	.	4r	.	4r	.	4r	.
=104:|!|:	=104:|!|:	=104:|!|:	=104:|!|:	=104:|!|:	=104:|!|:	=104:|!|:	=104:|!|:	=104:|!|:	=104:|!|:	=104:|!|:	=104:|!|:
*>D	*	*>D	*	*>D	*	*>D	*	*>D	*	*>D	*
!LO:TX:a:t=1	!	!LO:TX:a:t=1	!	!LO:TX:b:i:t=Dol.	!	!LO:TX:b:i:t=Dolce	!	!	!	!	!
!	!	!	!	!	!	!LO:LB:g=original	!	!	!	!	!
2.r	.	2.r	.	8B-\L	.	8d-X\L	.	4e-/	p	4ee-\	p
.	.	.	.	8A-\	.	8c\	.	.	.	.	.
.	.	.	.	8G\	.	8B-\	.	4e-/	.	4ee-\	.
.	.	.	.	8A-\	.	8c\	.	.	.	.	.
.	.	.	.	8B-\	.	8d-\	.	4e-/	.	4ee-\	.
.	.	.	.	8G\J	.	8B-\J	.	.	.	.	.
=105	=105	=105	=105	=105	=105	=105	=105	=105	=105	=105	=105
2E-/	.	2e-\	.	8A-\L	.	8c\L	.	4.a-\	f	4.aa-\	f
.	.	.	.	8G\	.	8B-\	.	.	.	.	.
.	.	.	.	8A-\	.	8c\	.	.	.	.	.
.	.	.	.	8B-\	.	8d-\	.	16g/LL	.	(16gg\LL	.
.	.	.	.	.	.	.	.	16f/JJ	.	16ff\JJ)	.
4E-/	.	4e-\	.	8c\	.	8e-\	.	4e-/	.	4ee-\	.
.	.	.	.	8A-\J	.	8c\J	.	.	.	.	.
=106	=106	=106	=106	=106	=106	=106	=106	=106	=106	=106	=106
!LO:TX:a:t=1	!	!LO:TX:a:t=1	!	!LO:LB:g=original	!	!	!	!	!	!	!
2.r	.	2.r	.	8B-\L	.	8d-\L	.	4e-/	.	4ee-\	p
.	.	.	.	8A-\	.	8c\	.	.	.	.	.
.	.	.	.	8G\	.	8B-\	.	4e-/	.	4ee-\	.
.	.	.	.	8A-\	.	8c\	.	.	.	.	.
.	.	.	.	8B-\	.	8d-\	.	4e-/	.	4ee-\	.
.	.	.	.	8G\J	.	8B-\J	.	.	.	.	.
=107	=107	=107	=107	=107	=107	=107	=107	=107	=107	=107	=107
!LO:LB:g=original	!	!	!	!	!	!	!	!	!	!	!
2E-/	.	2e-\	.	8A-\L	.	8c\L	.	4.a-\	.	4.aa-\	f
.	.	.	.	8G\	.	8B-\	.	.	.	.	.
.	.	.	.	8A-\	.	8c\	.	.	.	.	.
.	.	.	.	8B-\	.	8d-\	.	16g/LL	.	(16gg\LL	.
.	.	.	.	.	.	.	.	16f/JJ	.	16ff\JJ)	.
4E-/	.	4e-\	.	8c\	.	8e-\	.	4e-/	.	4ee-\	.
.	.	.	.	8A-\J	.	8c\J	.	.	.	.	.
=108	=108	=108	=108	=108	=108	=108	=108	=108	=108	=108	=108
!	!	!	!	!	!	!	!	!	!	!	!LO:DY:t=ffor
2.f\	.	2.f\	.	8r	.	8r	.	8dd-\	.	8ff\	ff
.	.	.	.	8D-X\L	.	8D-X\L	.	4dd-\	.	4ff\	.
.	.	.	.	8F\	.	8F\	.	.	.	.	.
.	.	.	.	8A-\J	.	8A-\J	.	4dd-\	.	4ff\	.
.	.	.	.	16d-\LL	.	16d-\LL	.	.	.	.	.
.	.	.	.	16c\	.	16c\	.	.	.	.	.
.	.	.	.	16B-\	.	16B-\	.	8dd-\	.	8ff\	.
.	.	.	.	16A-\JJ	.	16A-\JJ	.	.	.	.	.
=109	=109	=109	=109	=109	=109	=109	=109	=109	=109	=109	=109
!	!	!	!LO:DY:t=fp:	!	!	!LO:LB:g=original	!	!	!	!	!
4.e-\	.	4e-\	fp	4G\	.	4G\	.	4dd-\	f	4ee-\	.
.	.	8e-\	.	8A-\	.	8A-\	.	8cc\	.	8ee-\L	.
8e-\	.	8r	.	8r	.	8r	.	8r	.	16ff\L	.
.	.	.	.	.	.	.	.	.	.	16gg\JJ	.
8r	.	4r	.	4r	.	4r	.	4r	.	16aa-\LL	.
.	.	.	.	.	.	.	.	.	.	16bb-\	.
8c/	.	.	.	.	.	.	.	.	.	16ccc\	.
.	.	.	.	.	.	.	.	.	.	16aa-\JJ	.
=110	=110	=110	=110	=110	=110	=110	=110	=110	=110	=110	=110
!	!	!	!	!	!	!	!	!LO:LB:g=original	!	!	!
!	!	!	!	!	!	!	!	!LO:TX:a:t=problem:niepełny takt; pauza na II miarę zgodnie z Clarnetto 1mo	!	!	!
.	.	.	.	.	.	.	.	16qqdd-/	.	16qqbb-/	p
4r	.	4r	.	4D-\	p	4D-\	p	8dd-\L	.	8ff\L	.
.	.	.	.	.	.	.	.	16cc\L	.	16ee-\L	.
.	.	.	.	.	.	.	.	16b-\JJ	.	16dd-\JJ	.
4E-/	.	4e-\	.	4E-\	.	4E-\	.	4ryy	.	4cc\	.
4E-/	.	4e-\	.	4EE-/	.	4EE-/	.	8g\L	.	(8b-\L	.
.	.	.	.	.	.	.	.	8b-\J	.	8ee-\J)	.
=111	=111	=111	=111	=111	=111	=111	=111	=111	=111	=111	=111
!	!	!	!	!	!	!	!	!	!	!LO:LB:g=original	!
2E-/	.	2e-\	.	8r	.	8r	.	2b-\	.	2dd-\	.
!	!	!	!	!LO:TX:a:t=problem:mixed beam	!	!LO:TX:a:t=problem:mixed beam	!	!	!	!	!
.	.	.	.	8E-\L	.	8E-\L	.	.	.	.	.
.	.	.	.	8G\	.	8G\	.	.	.	.	.
.	.	.	.	8E-\	.	8E-\	.	.	.	.	.
4E-/	.	4e-\	.	8A-\	.	8A-\	.	4a-\	.	4cc\	.
.	.	.	.	8AA-/J	.	8AA-/J	.	.	.	.	.
=112	=112	=112	=112	=112	=112	=112	=112	=112	=112	=112	=112
!	!	!LO:LB:g=original	!	!	!	!	!	!	!	!	!LO:DY:t=ffor
8f\	.	8f\	.	8r	.	8r	.	8dd-\	f	8ff\	ff
4f\	.	4f\	.	8D-\L	f	8D-\L	f	4dd-\	.	4ff\	.
.	.	.	.	8F\	.	8F\	.	.	.	.	.
4f\	.	4f\	.	8A-\	.	8A-\	.	4dd-\	.	4ff\	.
!	!	!	!	!LO:TX:a:t=SIC&colon;s=8d-	!	!	!	!	!	!	!
.	.	.	.	8c#X\	.	8d-\	.	.	.	.	.
8f\	.	8f\	.	8D-\J	.	8D-\J	.	8dd-\	.	8ff\	.
=113	=113	=113	=113	=113	=113	=113	=113	=113	=113	=113	=113
!LO:LB:g=original	!	!	!	!LO:LB:g=original	!	!	!	!LO:TX:a:t=problem:niezidentyfikowany znak po "for"	!	!	!
4e-\	.	4e-\	.	4AA-/	.	4AA-/	.	16cc\LL	f	16ee-'\LL	f
.	.	.	.	.	.	.	.	16a-\	.	16cc'\	.
.	.	.	.	.	.	.	.	16b-\	.	16dd-'\	.
.	.	.	.	.	.	.	.	16cc\JJ	.	16ee-'\JJ	.
4r	.	4r	.	4r	.	4r	.	16dd-\LL	.	16ff'\LL	.
.	.	.	.	.	.	.	.	16ee-\	.	16gg'\	.
.	.	.	.	.	.	.	.	16ff\	.	16aa-'\	.
.	.	.	.	.	.	.	.	16gg\JJ	.	16bb-'\JJ	.
4r	.	4r	.	4A-\	.	4A-\	.	4aa-\	.	4ccc\	.
=114	=114	=114	=114	=114	=114	=114	=114	=114	=114	=114	=114
!LO:TX:a:t=1	!	!LO:TX:a:t=1	!	!	!	!	!	!	!	!	!
2.r	.	2.r	.	8D-\	.	8D-\	.	8r	.	8r	.
.	.	.	.	8r	.	8r	.	8dd-\	.	8bb-\	.
.	.	.	.	8E-\	.	8E-\	.	8r	.	8r	.
.	.	.	.	8r	.	8r	.	8cc\	.	8aa-\	.
.	.	.	.	8E-\	.	8E-\	.	8r	.	8r	.
.	.	.	.	8r	.	8r	.	8b-\	.	8gg\	.
=115	=115	=115	=115	=115	=115	=115	=115	=115	=115	=115	=115
!	!	!	!	!	!	!	!	!	!	!LO:TX:b:i:t=Dolce	!
4E-/	.	4e-\	.	8r	.	8r	.	8a-/L	.	(8aa-\L	.
.	.	.	.	8c\L	.	8e-\L	.	8e-/J	p	8ee-\J)	.
4r	.	4r	.	8B-\	.	8d-\	.	4.e-/	.	4.ee-\	.
.	.	.	.	8A-\J	.	8c\J	.	.	.	.	.
!	!	!	!	!	!	!LO:LB:g=original	!	!	!	!	!
8r	.	8r	.	8.G\L	.	8.B-\L	.	.	.	.	.
8E-/	.	8e-\	.	.	.	.	.	8g/	.	8gg\	.
.	.	.	.	32A-\LL	.	32c\LL	.	.	.	.	.
.	.	.	.	32B-\JJJ	.	32d-\JJJ	.	.	.	.	.
=116	=116	=116	=116	=116	=116	=116	=116	=116	=116	=116	=116
!	!	!	!	!	!	!	!	!LO:LB:g=original	!	!	!
4E-/	.	4e-\	.	8A-\L	.	8c\L	.	8a-/L	.	(8aa-\L	.
.	.	.	.	8c\	.	8e-\	.	8e-/J	.	8ee-\J)	.
4r	.	4r	.	8B-\	.	8d-\	.	4.e-/	.	4.ee-\	.
.	.	.	.	8A-\J	.	8c\J	.	.	.	.	.
8r	.	8r	.	8.G\L	.	8.B-\L	.	.	.	.	.
8E-/	.	8e-\	.	.	.	.	.	8g/	.	8gg\	.
.	.	.	.	(32A-\LL	.	(32c\LL	.	.	.	.	.
.	.	.	.	32B-\JJJ)	.	32d-\JJJ)	.	.	.	.	.
=117	=117	=117	=117	=117	=117	=117	=117	=117	=117	=117	=117
8E-/	.	8e-\	.	8A-\	.	8c\	.	8a-\	.	8aa-\	.
8r	.	8r	.	8r	.	8r	.	8r	.	8r	.
8E-/	.	8e-\	.	8E-\	.	8A-\	.	8cc\	.	8aa-\	.
8r	.	8r	.	8r	.	8r	.	8r	.	8r	.
!	!	!	!	!	!	!	!	!	!	!LO:LB:g=original	!
8E-/	.	8e-\	.	8C\	.	8A-\	.	8cc\	.	8aa-\	.
8r	.	8r	.	8r	.	8r	.	8r	.	8r	.
=118	=118	=118	=118	=118	=118	=118	=118	=118	=118	=118	=118
2E-/	.	2e-\	.	2AA-/	.	2A-\	.	2cc\	.	2aa-\	.
!	!	!LO:TX:a:t=15	!	!LO:TX:a:t=15	!	!	!	!LO:TX:a:t=15	!	!LO:TX:b:t=15	!
!	!	!	!	!LO:TX:a:t=problem:niejednoznaczny zapis kreski taktowej	!	!LO:TX:a:t=problem:niejednoznaczny zapis kreski taktowej	!	!LO:TX:a:t=problem:niejednoznaczny zapis kreski taktowej	!	!	!
4r	.	4r	.	4r	.	4r	.	4r	.	4r	.
=119||	=119||	=119||	=119||	=119||	=119||	=119||	=119||	=119||	=119||	=119:||	=119||
!LO:PB:g=original	!	!LO:LB:g=original	!	!LO:LB:g=original	!	!LO:LB:g=original	!	!LO:LB:g=original	!	!	!
*>E	*	*>E	*	*>E	*	*>E	*	*>E	*	*>E	*
*k[b-e-a-]	*	*k[b-e-a-]	*	*k[b-e-a-]	*	*k[e-b-a-]	*	*k[e-b-a-]	*	*k[b-e-a-]	*
*M3/4	*	*M3/4	*	*M3/4	*	*M3/4	*	*M3/4	*	*M3/4	*
!	!	!	!	!	!	!LO:TX:a:t=1	!	!	!	!	!
!LO:TX:a:t=1	!	!LO:TX:a:t=1	!	!	!	!	!	!	!	!	!
!LO:TX:a:B:t=Menmetto	!	!LO:TX:a:B:t=Menuetto	!	!LO:TX:b:B:t=Menuetto	!LO:DY:a	!LO:TX:a:B:t=Menuetto	!	!LO:TX:a:B:t=Menuetto	!	!LO:TX:a:B:t=Menuetto	!
2.r	.	2.r	.	4C\	f	2.r	.	8e-/L	.	4.cc\	.
.	.	.	.	.	.	.	.	8g/	.	.	.
.	.	.	.	4C\	.	.	.	8e-/	.	.	.
.	.	.	.	.	.	.	.	8g/	.	8g/	.
.	.	.	.	4C\	.	.	.	8e-/	.	8ee-\L	.
.	.	.	.	.	.	.	.	8g/J	.	8cc\J	.
=120	=120	=120	=120	=120	=120	=120	=120	=120	=120	=120	=120
*	*	*	*	*	*	*	*	*tremolo	*	*	*
4r	.	4r	.	4D\	.	4r	.	8f/L	.	4bX\	.
.	.	.	.	.	.	.	.	8g/	.	.	.
4f\	.	4g\	.	4r	.	4d\	.	8f/	.	4r	.
.	.	.	.	.	.	.	.	8g/	.	.	.
4f\	.	4g\	.	4r	.	4d\	.	8f/	.	4r	.
.	.	.	.	.	.	.	.	8g/J	.	.	.
=121	=121	=121	=121	=121	=121	=121	=121	=121	=121	=121	=121
!	!	!	!	!	!	!	!	!LO:TX:a:t=problem:repetycja t. 120	!	!	!
4f\	.	4g\	.	4BBn/	.	4d\	.	8f/L	.	4.dd\	.
.	.	.	.	.	.	.	.	8g/	.	.	.
4r	.	4r	.	4BB/	.	4r	.	8f/	.	.	.
.	.	.	.	.	.	.	.	8g/	.	8bX\	.
4r	.	4r	.	4BB/	.	4r	.	8f/	.	8ff\L	.
.	.	.	.	.	.	.	.	8g/J	.	8dd\J	.
=122	=122	=122	=122	=122	=122	=122	=122	=122	=122	=122	=122
4r	.	4r	.	4C\	.	4r	.	8e-/L	.	4cc\	.
.	.	.	.	.	.	.	.	8g/	.	.	.
4e-\	.	4g\	.	4r	.	4c\	.	8e-/	.	4r	.
.	.	.	.	.	.	.	.	8g/	.	.	.
4e-\	.	4g\	.	4r	.	4c\	.	8e-/	.	4r	.
.	.	.	.	.	.	.	.	8g/J	.	.	.
*	*	*	*	*	*	*	*	*Xtremolo	*	*	*
=123	=123	=123	=123	=123	=123	=123	=123	=123	=123	=123	=123
*	*	*	*	*	*	*tremolo	*	*	*	*	*
!	!	!	!	!	!	!	!	!	!	!	!
4e-\	.	4g\	.	8E-\L	f	8E-\L	.	4cc\	.	2gg\	f
.	.	.	.	8E-\	.	8E-\	.	.	.	.	.
4r	.	4r	.	8E-\	.	8E-\	.	4cc\	.	.	.
.	.	.	.	8E-\	.	8E-\	.	.	.	.	.
4r	.	4r	.	8E-\	.	8E-\	.	4cc\	.	8ee-\L	.
.	.	.	.	8E-\J	.	8E-\J	.	.	.	8cc\J	.
=124	=124	=124	=124	=124	=124	=124	=124	=124	=124	=124	=124
!	!	!LO:TX:a:t=3	!	!	!	!	!	!	!	!	!
!LO:N:vis=0	!	!LO:N:vis=0	!	!	!	!	!	!	!	!	!
1.r	.	1.r	.	2F\	.	2.F\	.	2cc\	.	2aa-\	.
.	.	.	.	4r	.	.	.	4r	.	16gg\LL	.
.	.	.	.	.	.	.	.	.	.	16ff\	.
.	.	.	.	.	.	.	.	.	.	16ee-\	.
.	.	.	.	.	.	.	.	.	.	16dd\JJ	.
=125	=125	=125	=125	=125	=125	=125	=125	=125	=125	=125	=125
!	!	!	!	!	!	!	!	!	!	!LO:TX:a:t=problem:niejednoznaczny zapis łuku	!
.	.	.	.	4AA-/	.	2.A-\	.	2.cc\	.	(8cc\L	.
.	.	.	.	.	.	.	.	.	.	8dd\	.
.	.	.	.	4AA-/	.	.	.	.	.	8ee-\	.
.	.	.	.	.	.	.	.	.	.	8eeX\	.
.	.	.	.	4AA-/	.	.	.	.	.	8ff\	.
.	.	.	.	.	.	.	.	.	.	8ff#X\J)	.
=126	=126	=126	=126	=126	=126	=126	=126	=126	=126	=126	=126
!LO:TX:a:t=8	!	!	!	!	!	!LO:LB:g=original	!	!	!	!LO:LB:g=original	!
!	!	!	!	!	!	!	!	!LO:LB:g=original	!	!	!
2.r	.	2.r	.	4GG/	.	4G\	.	4bX\	.	4gg\	.
.	.	.	.	4GG/	.	4G\	.	4r	.	4r	.
!	!	!	!	!LO:TX:a:t=8	!	!LO:TX:a:t=8	!	!LO:TX:a:t=8	!	!LO:TX:a:t=8	!
.	.	.	.	4GG/	.	4G\	.	4r	.	4r	.
=127:|!|:	=127:|!|:	=127:|!|:	=127:|!|:	=127:|!|:	=127:|!|:	=127:|!|:	=127:|!|:	=127:|!|:	=127:|!|:	=127:|!|:	=127:|!|:
*>F	*	*>F	*	*>F	*	*>F	*	*>F	*	*>F	*
4g\	.	4b-\	.	4EE-/	.	4E-\	.	4gg\	.	4bb-\	.
4g\	.	4b-\	.	4GG/	.	4G\	.	4gg\	.	4bb-\	.
4g\	.	4b-\	.	4BB-/	.	4B-\	.	4gg\	.	4bb-\	.
=128	=128	=128	=128	=128	=128	=128	=128	=128	=128	=128	=128
!LO:LB:g=original	!	!	!	!LO:LB:g=original	!	!	!	!	!	!	!
8g\	.	8b-\	.	4E-\	.	4e-\	.	8gg\L	.	8bb-\L	.
8r	.	8r	.	.	.	.	.	8ff\	.	8aa-\	.
4r	.	4r	.	4r	.	4r	.	8ee-\	.	8gg\	.
.	.	.	.	.	.	.	.	8dd\	.	8ff\	.
4r	.	4r	.	4r	.	4r	.	8cc\	.	8ee-\	.
.	.	.	.	.	.	.	.	8b-\J	.	8dd\J	.
=129	=129	=129	=129	=129	=129	=129	=129	=129	=129	=129	=129
!LO:TX:a:t=1	!	!LO:TX:a:t=1	!	!	!	!	!	!	!	!	!
2.r	.	2.r	.	2.E-\	.	2.E-\	.	8a-\L	.	8cc\L	.
.	.	.	.	.	.	.	.	8g\	.	8b-\	.
.	.	.	.	.	.	.	.	8f\	.	8a-\	.
.	.	.	.	.	.	.	.	8e-\	.	8g\	.
.	.	.	.	.	.	.	.	8a-\	.	8cc\	.
.	.	.	.	.	.	.	.	8g\J	.	8b-\J	.
=130	=130	=130	=130	=130	=130	=130	=130	=130	=130	=130	=130
!	!	!	!	!	!	!	!	!	!	!	!
4r	.	4r	.	2.E-\	.	8E-\L	.	2g/	.	2b-\	.
.	.	.	.	.	.	8E-\	.	.	.	.	.
4E-/	.	4e-\	.	.	.	8E-\	.	.	.	.	.
.	.	.	.	.	.	8E-\	.	.	.	.	.
4E-/	.	4e-\	.	.	.	8E-\	.	4g/	.	4bX\	.
.	.	.	.	.	.	8E-\J	.	.	.	.	.
=131	=131	=131	=131	=131	=131	=131	=131	=131	=131	=131	=131
!	!	!	!	!LO:TX:a:t=problem:repetycjatt. 129-130	!	!	!	!	!	!	!
2.E-/	.	2.e-\	.	2.E-\yy	.	8E-\L	.	4a-\	.	4cc\	.
.	.	.	.	.	.	8E-\	.	.	.	.	.
.	.	.	.	.	.	8E-\	.	4a-\	.	8aa-\L	.
.	.	.	.	.	.	8E-\	.	.	.	8ff\	.
.	.	.	.	.	.	8E-\	.	4a-\	.	8ee-\	.
.	.	.	.	.	.	8E-\J	.	.	.	8dd\J	.
=132	=132	=132	=132	=132	=132	=132	=132	=132	=132	=132	=132
2.E-/	.	2.e-\	.	2.E-\yy	.	8E-\L	.	4g\	.	4ee-\	.
.	.	.	.	.	.	8E-\	.	.	.	.	.
.	.	.	.	.	.	8E-\	.	4g\	.	4gg\	.
.	.	.	.	.	.	8E-\	.	.	.	.	.
.	.	.	.	.	.	8E-\	.	4g\	.	4b-\	.
.	.	.	.	.	.	8E-\J	.	.	.	.	.
=133	=133	=133	=133	=133	=133	=133	=133	=133	=133	=133	=133
2.E-/	.	2.e-\	.	2.E-\	.	8E-\L	.	4a-\	.	4cc\	.
.	.	.	.	.	.	8E-\	.	.	.	.	.
.	.	.	.	.	.	8E-\	.	4a-\	.	8aa-\L	.
.	.	.	.	.	.	8E-\	.	.	.	8ff\	.
.	.	.	.	.	.	8E-\	.	4a-\	.	8ee-\	.
.	.	.	.	.	.	8E-\J	.	.	.	8dd\J	.
=134	=134	=134	=134	=134	=134	=134	=134	=134	=134	=134	=134
!	!	!	!	!	!	!	!	!LO:LB:g=original	!	!	!
2.E-/	.	2.e-\	.	4.E-\	.	4.E-\	.	4g/	.	4.ee-\	.
.	.	.	.	.	.	.	.	4r	.	.	.
!	!	!	!	!LO:N:vis=16	!	!LO:N:vis=16	!	!	!	!LO:N:vis=16	!
.	.	.	.	8D\	.	8D\	.	.	.	8dd\	.
.	.	.	.	4D\	.	4D\	.	4r	.	4ddt\	.
=135	=135	=135	=135	=135	=135	=135	=135	=135	=135	=135	=135
!LO:TX:a:t=1	!	!LO:TX:a:t=1	!	!	!	!LO:LB:g=original	!	!	!	!	!
2.r	.	2.r	.	4C/	.	4C/	.	8e-/L	.	4.cc\	.
.	.	.	.	.	.	.	.	8g/	.	.	.
.	.	.	.	4r	.	4r	.	8e-/	.	.	.
.	.	.	.	.	.	.	.	8g/	.	8g\	.
.	.	.	.	4r	.	4r	.	8e-/	.	8ee-\L	.
.	.	.	.	.	.	.	.	8g/J	.	8cc\J	.
=136	=136	=136	=136	=136	=136	=136	=136	=136	=136	=136	=136
*	*	*	*	*	*	*	*	*tremolo	*	*	*
!	!	!	!	!	!	!	!	!	!	!LO:LB:g=original	!
4r	.	4r	.	4D\	.	4r	.	8f/L	.	4b-\	.
.	.	.	.	.	.	.	.	8g/	.	.	.
4f\	.	4g\	.	4r	.	4d\	.	8f/	.	4r	.
.	.	.	.	.	.	.	.	8g/	.	.	.
4f\	.	4g\	.	4r	.	4d\	.	8f/	.	4r	.
.	.	.	.	.	.	.	.	8g/J	.	.	.
=137	=137	=137	=137	=137	=137	=137	=137	=137	=137	=137	=137
!LO:LB:g=original	!	!	!	!	!	!	!	!	!	!	!
4f\	.	4g\	.	4BBn/	.	4d\	.	8f/L	.	4.dd\	.
.	.	.	.	.	.	.	.	8g/	.	.	.
4r	.	4r	.	4BB/	.	4r	.	8f/	.	.	.
.	.	.	.	.	.	.	.	8g/	.	8b-\	.
4r	.	4r	.	4BB/	.	4r	.	8f/	.	8ff\L	.
.	.	.	.	.	.	.	.	8g/J	.	8dd\J	.
=138	=138	=138	=138	=138	=138	=138	=138	=138	=138	=138	=138
4r	.	4r	.	4C\	.	4r	.	8e-/L	.	4cc\	.
.	.	.	.	.	.	.	.	8g/	.	.	.
4e-\	.	4g\	.	4r	.	4c\	.	8e-/	.	4r	.
.	.	.	.	.	.	.	.	8g/	.	.	.
4e-\	.	4g\	.	4r	.	4c\	.	8e-/	.	4r	.
.	.	.	.	.	.	.	.	8g/J	.	.	.
*	*	*	*	*	*	*	*	*Xtremolo	*	*	*
=139	=139	=139	=139	=139	=139	=139	=139	=139	=139	=139	=139
2e-\	.	2g\	.	8E-\L	f	8E-\L	.	2.g/	.	2gg\	f
.	.	.	.	8E-\	.	8E-\	.	.	.	.	.
.	.	.	.	8E-\	.	8E-\	.	.	.	.	.
.	.	.	.	8E-\	.	8E-\	.	.	.	.	.
4r	.	4r	.	8E-\	.	8E-\	.	.	.	8ee-\L	.
.	.	.	.	8E-\J	.	8E-\J	.	.	.	8cc\J	.
=140	=140	=140	=140	=140	=140	=140	=140	=140	=140	=140	=140
2f\	.	2f\	.	8F\L	.	8F\L	.	2a-\	.	2aa-\	.
.	.	.	.	8F\	.	8F\	.	.	.	.	.
.	.	.	.	8F\	.	8F\	.	.	.	.	.
.	.	.	.	8F\	.	8F\	.	.	.	.	.
4r	.	4r	.	8F\	.	8F\	.	4r	.	16gg\LL	.
.	.	.	.	.	.	.	.	.	.	16ff\	.
.	.	.	.	8F\J	.	8F\J	.	.	.	16ee-\	.
.	.	.	.	.	.	.	.	.	.	16dd\JJ	.
=141	=141	=141	=141	=141	=141	=141	=141	=141	=141	=141	=141
!	!	!	!	!LO:LB:g=original	!	!	!	!	!	!	!
4r	.	4r	.	8G\L	.	8G\L	.	4r	.	4ee-\	.
.	.	.	.	8G\	.	8G\	.	.	.	.	.
4e-\	.	4g\	.	8G\	.	8G\	.	4e-/	.	4gg\	.
.	.	.	.	8G\J	.	8G\J	.	.	.	.	.
*	*	*	*	*Xtremolo	*	*Xtremolo	*	*	*	*	*
4f\	.	4g\	.	8GG/L	.	8GG/L	.	4d/	.	4bX\	.
.	.	.	.	8GG/J	.	8GG/J	.	.	.	.	.
=142	=142	=142	=142	=142	=142	=142	=142	=142	=142	=142	=142
4e-\	.	4g\	.	4C/	.	4C/	.	4c/	.	4cc\	.
4r	.	4r	.	4c\	.	4c\	.	4r	.	4r	.
!	!	!LO:TX:a:B:t=Subito Trio Solo	!	!	!	!	!	!LO:TX:b:i:t=Men&colon; Ḏa Capo	!	!	!
!LO:TX:a:t=16	!	!LO:TX:a:t=16	!	!LO:TX:a:t=16	!	!LO:TX:a:t=16	!	!LO:TX:a:t=16	!	!LO:TX:a:t=16	!
!	!	!	!	!	!	!	!	!LO:TX:a:t=problem:niejednoznaczny zapis kreski taktowej	!	!	!
4r	.	4r	.	4C/	.	4C/	.	4r	.	4r	.
=143||	=143||	=143||	=143||	=143||	=143||	=143:||	=143||	=143||	=143||	=143:||	=143||
*>G	*	*>G	*	*>G	*	*>G	*	*>G	*	*>G	*
*k[b-e-a-]	*	*k[b-e-a-]	*	*k[e-b-a-]	*	*k[e-b-a-]	*	*k[b-e-a-]	*	*k[b-e-a-]	*
*M3/4	*	*M3/4	*	*M3/4	*	*M3/4	*	*M3/4	*	*M3/4	*
!	!	!LO:PB:g=original	!	!	!	!LO:LB:g=original	!	!	!	!	!
!	!	!LO:TX:b:i:t=dolce	!	!LO:TX:a:t=1	!	!LO:TX:a:t=1	!	!LO:LB:g=original	!	!	!
!	!	!LO:TX:a:t=Solo	!	!	!	!	!	!	!	!	!
!LO:TX:a:B:t=Trio	!	!LO:TX:a:B:t=Trio	!	!LO:TX:a:B:t=Trio	!	!LO:TX:a:B:t=Trio	!	!LO:TX:a:B:t=Trio Tacett	!	!LO:TX:a:B:t=Trio Tacett	!
4.g\	.	4.b-\	.	2.r	.	2.r	.	2.ryy	.	2.ryy	.
8f\L	.	8a-\L	.	.	.	.	.	.	.	.	.
8e-\	.	8g\	.	.	.	.	.	.	.	.	.
8B-\J	.	8f\J	.	.	.	.	.	.	.	.	.
=144	=144	=144	=144	=144	=144	=144	=144	=144	=144	=144	=144
!LO:LB:g=original	!	!	!	!LO:TX:b:i:t=dol&colon;	!	!	!	!	!	!	!
4G/	.	4e-\	.	4.E-\	.	4.e-\	.	2.ryy	.	2.ryy	.
4G/	.	4e-\	.	.	.	.	.	.	.	.	.
.	.	.	.	8BB-/L	.	8B-\L	.	.	.	.	.
4G/	.	4e-\	.	8GG/	.	8G\	.	.	.	.	.
.	.	.	.	8EE-/J	.	8E-\J	.	.	.	.	.
=145	=145	=145	=145	=145	=145	=145	=145	=145	=145	=145	=145
*	*	*	*	*tremolo	*	*tremolo	*	*	*	*	*
4B-/	.	4f\	.	8D\L	.	8D\L	.	2.ryy	.	2.ryy	.
.	.	.	.	8BB-\	.	8BB-\	.	.	.	.	.
4B-/	.	8f\L	.	8D\	.	8D\	.	.	.	.	.
.	.	8e-\J	.	8BB-\	.	8BB-\	.	.	.	.	.
4B-/	.	4f\	.	8D\	.	8D\	.	.	.	.	.
.	.	.	.	8BB-\J	.	8BB-\J	.	.	.	.	.
=146	=146	=146	=146	=146	=146	=146	=146	=146	=146	=146	=146
4e-\	.	4g\	.	4E-\	.	4E-\	.	2.ryy	.	2.ryy	.
4G/	.	4e-\	.	16r	.	16r	.	.	.	.	.
.	.	.	.	16E-\LL	f	16E-\LL	.	.	.	.	.
.	.	.	.	16F\	.	16F\	.	.	.	.	.
.	.	.	.	16G\JJ	.	16G\JJ	.	.	.	.	.
4r	.	4r	.	16A-\LL	.	16A-\LL	.	.	.	.	.
.	.	.	.	16B-\	.	16B-\	.	.	.	.	.
.	.	.	.	16c\	.	16c\	.	.	.	.	.
.	.	.	.	16d\JJ	.	16d\JJ	.	.	.	.	.
=147	=147	=147	=147	=147	=147	=147	=147	=147	=147	=147	=147
4.g\	.	4.b-\	.	4e-\	.	4e-\	.	2.ryy	.	2.ryy	.
.	.	.	.	4r	.	4r	.	.	.	.	.
8f\L	.	8a-\L	.	.	.	.	.	.	.	.	.
!	!	!	!	!LO:TX:a:t=problem:brak pauzy ćwierćnutowej	!	!	!	!	!	!	!
8e-\	.	8g\	.	4ryy	.	4r	.	.	.	.	.
8B-\J	.	8f\J	.	.	.	.	.	.	.	.	.
=148	=148	=148	=148	=148	=148	=148	=148	=148	=148	=148	=148
!	!	!	!	!LO:LB:g=original	!	!	!	!	!	!	!
4G/	.	4e-\	.	4.E-\	.	4.e-\	.	2.ryy	.	2.ryy	.
4G/	.	4e-\	.	.	.	.	.	.	.	.	.
.	.	.	.	8BB-/L	.	8B-\L	.	.	.	.	.
4G/	.	4e-\	.	8GG/	.	8G\	.	.	.	.	.
.	.	.	.	8EE-/J	.	8E-\J	.	.	.	.	.
=149	=149	=149	=149	=149	=149	=149	=149	=149	=149	=149	=149
.	.	16qqg/	.	.	.	.	.	.	.	.	.
*	*	*	*	*tremolo	*	*	*	*	*	*	*
4B-/	.	4f\	.	8D\L	.	8D/L	.	2.ryy	.	2.ryy	.
.	.	.	.	8BB-\	.	8BB-/	.	.	.	.	.
4B-/	.	8f\L	.	8D\	.	8D/	.	.	.	.	.
.	.	8e-\J	.	8BB-\	.	8BB-/	.	.	.	.	.
4B-/	.	4f\	.	8D\	.	8D/	.	.	.	.	.
.	.	.	.	8BB-\J	.	8BB-/J	.	.	.	.	.
=150	=150	=150	=150	=150	=150	=150	=150	=150	=150	=150	=150
!LO:LB:g=original	!	!LO:LB:g=original	!	!	!	!LO:LB:g=original	!	!	!	!	!
4G/	.	4e-\	.	4E-\	.	4E-\	.	2.ryy	.	2.ryy	.
!	!	!	!	!LO:TX:b:t=Trio	!	!	!	!	!	!	!
4G/	.	4e-\	.	4EE-/	.	4EE-/	.	.	.	.	.
!LO:TX:a:t=8	!	!LO:TX:a:t=8	!	!	!	!LO:TX:a:t=8	!	!	!	!	!
4r	.	4r	.	4r;	.	4r	.	.	.	.	.
=151:|!|:	=151:|!|:	=151:|!|:	=151:|!|:	=151:|!|:	=151:|!|:	=151:|!|:	=151:|!|:	=151:|!|:	=151:|!|:	=151:|!|:	=151:|!|:
*>H	*	*>H	*	*>H	*	*>H	*	*>H	*	*>H	*
4B-/	.	4f\	.	2.BB-/	.	8d\L	.	2.ryy	.	2.ryy	.
.	.	.	.	.	.	8f\	.	.	.	.	.
4B-/	.	4f\	.	.	.	8e-\	.	.	.	.	.
.	.	.	.	.	.	8d\	.	.	.	.	.
4B-/	.	4f\	.	.	.	8c\	.	.	.	.	.
.	.	.	.	.	.	8B-\J	.	.	.	.	.
=152	=152	=152	=152	=152	=152	=152	=152	=152	=152	=152	=152
4.e-\	.	4.g\	.	4E-\	.	4e-\	.	2.ryy	.	2.ryy	.
.	.	.	.	4EE-/	.	4E-\	.	.	.	.	.
8f\	.	8a-\	.	.	.	.	.	.	.	.	.
4g\	.	4b-\	.	4r	.	4r	.	.	.	.	.
=153	=153	=153	=153	=153	=153	=153	=153	=153	=153	=153	=153
4.g\	.	4b-\	.	4E-\	.	4E-\	.	2.ryy	.	2.ryy	.
.	.	8ee-\L	.	4r	.	4r	.	.	.	.	.
8g\L	.	8b-\	.	.	.	.	.	.	.	.	.
8f\	.	8a-\	.	4EE-/	.	4E-\	.	.	.	.	.
8e-\J	.	8g\J	.	.	.	.	.	.	.	.	.
=154	=154	=154	=154	=154	=154	=154	=154	=154	=154	=154	=154
4e-\	.	4g\	.	4B-\	.	4B-\	.	2.ryy	.	2.ryy	.
4B-\	.	4f\	.	4BB-/	.	4BB-/	.	.	.	.	.
!	!	!	!	!LO:TX:a:B:t=Trio Da Capo	!	!LO:TX:a:B:t=Trio Da Capo	!	!	!	!	!
!	!	!	!	!LO:TX:a:t=problem:niejednoznaczny zapis kreski taktowej	!	!LO:TX:a:t=problem:niejednoznaczny zapis kreski taktowej	!	!	!	!	!
4r	.	4r	.	4r	.	4r	.	.	.	.	.
=155	=155	=155	=155	=155	=155	=155	=155	=155	=155	=155	=155
!	!	!	!	!LO:TX:a:t=1	!	!LO:TX:a:t=1	!	!	!	!	!
!	!	!	!	!LO:TX:a:t=problem:repetycja tt. 143-150 oznaczona skrótem "Trio Da Capo"	!	!LO:TX:a:t=problem:repetycja tt. 143-150 oznaczone skrótem "Trio Da Capo"	!	!	!	!	!
4.g\	.	4.b-\	.	2.ryy	.	2.ryy	.	2.ryy	.	2.ryy	.
8f\L	.	8a-\L	.	.	.	.	.	.	.	.	.
8e-\	.	8g\	.	.	.	.	.	.	.	.	.
8B-\J	.	8f\J	.	.	.	.	.	.	.	.	.
=156	=156	=156	=156	=156	=156	=156	=156	=156	=156	=156	=156
!	!	!	!	!LO:TX:b:i:t=dol&colon;	!	!	!	!	!	!	!
4G/	.	4e-\	.	4.E-\yy	.	4.e-\yy	.	2.ryy	.	2.ryy	.
4G/	.	4e-\	.	.	.	.	.	.	.	.	.
.	.	.	.	8BB-/Lyy	.	8B-\Lyy	.	.	.	.	.
4G/	.	4e-\	.	8GG/yy	.	8G\yy	.	.	.	.	.
.	.	.	.	8EE-/Jyy	.	8E-\Jyy	.	.	.	.	.
=157	=157	=157	=157	=157	=157	=157	=157	=157	=157	=157	=157
!LO:LB:g=original	!	!	!	!	!	!	!	!	!	!	!
4B-/	.	4f\	.	8D\Lyy	.	8D\Lyy	.	2.ryy	.	2.ryy	.
.	.	.	.	8BB-\yy	.	8BB-\yy	.	.	.	.	.
4B-/	.	8f\L	.	8D\yy	.	8D\yy	.	.	.	.	.
.	.	8e-\J	.	8BB-\yy	.	8BB-\yy	.	.	.	.	.
4B-/	.	4f\	.	8D\yy	.	8D\yy	.	.	.	.	.
.	.	.	.	8BB-\Jyy	.	8BB-\Jyy	.	.	.	.	.
=158	=158	=158	=158	=158	=158	=158	=158	=158	=158	=158	=158
!	!	!LO:LB:g=original	!	!	!	!	!	!	!	!	!
4e-\	.	(4g\	.	4E-\yy	.	4E-\yy	.	2.ryy	.	2.ryy	.
4g\	.	4b-\)	.	16ryy	.	16ryy	.	.	.	.	.
.	.	.	.	16E-\LLyy	f	16E-\LLyy	.	.	.	.	.
.	.	.	.	16F\yy	.	16F\yy	.	.	.	.	.
.	.	.	.	16G\JJyy	.	16G\JJyy	.	.	.	.	.
4r	.	4r	.	16A-\LLyy	.	16A-\LLyy	.	.	.	.	.
.	.	.	.	16B-\yy	.	16B-\yy	.	.	.	.	.
.	.	.	.	16c\yy	.	16c\yy	.	.	.	.	.
.	.	.	.	16d\JJyy	.	16d\JJyy	.	.	.	.	.
=159	=159	=159	=159	=159	=159	=159	=159	=159	=159	=159	=159
4.g\	.	4.b-\	.	4e-\yy	.	4e-\yy	.	2.ryy	.	2.ryy	.
.	.	.	.	4ryy	.	4r	.	.	.	.	.
8f\L	.	8a-\L	.	.	.	.	.	.	.	.	.
!	!	!	!	!LO:TX:a:t=problem:brak pauzy ćwierćnutowej	!	!	!	!	!	!	!
8e-\	.	8g\	.	4ryy	.	4r	.	.	.	.	.
8B-\J	.	8f\J	.	.	.	.	.	.	.	.	.
=160	=160	=160	=160	=160	=160	=160	=160	=160	=160	=160	=160
4G/	.	4e-\	.	4.E-\yy	.	4.e-\yy	.	2.ryy	.	2.ryy	.
4G/	.	4e-\	.	.	.	.	.	.	.	.	.
.	.	.	.	8BB-/Lyy	.	8B-\Lyy	.	.	.	.	.
4G/	.	4e-\	.	8GG/yy	.	8G\yy	.	.	.	.	.
.	.	.	.	8EE-/Jyy	.	8E-\Jyy	.	.	.	.	.
=161	=161	=161	=161	=161	=161	=161	=161	=161	=161	=161	=161
.	.	8qqg/	.	.	.	.	.	.	.	.	.
4B-/	.	4f\	.	8D\Lyy	.	8D/Lyy	.	2.ryy	.	2.ryy	.
.	.	.	.	8BB-\yy	.	8BB-/yy	.	.	.	.	.
8B-/L	.	8f\L	.	8D\yy	.	8D/yy	.	.	.	.	.
8G/J	.	8e-\J	.	8BB-\yy	.	8BB-/yy	.	.	.	.	.
4B-/	.	4f\	.	8D\yy	.	8D/yy	.	.	.	.	.
.	.	.	.	8BB-\Jyy	.	8BB-/Jyy	.	.	.	.	.
=162	=162	=162	=162	=162	=162	=162	=162	=162	=162	=162	=162
4G/	.	4e-\	.	4E-\yy	.	4E-\yy	.	2.ryy	.	2.ryy	.
4G/	.	4e-\	.	4EE-/yy	.	4EE-/yy	.	.	.	.	.
!LO:TX:a:t=12	!	!LO:TX:a:t=12	!	!	!	!LO:TX:a:t=8	!	!	!	!	!
4r	.	4r	.	4r;yy	.	4r	.	.	.	.	.
=163||	=163||	=163||	=163||	=163||	=163||	=163||	=163||	=163||	=163||	=163||	=163||
!LO:LB:g=original	!	!LO:LB:g=original	!	!LO:LB:g=original	!	!LO:LB:g=original	!	!	!	!	!
*>I	*	*>I	*	*>I	*	*>I	*	*>I	*	*>I	*
*k[b-e-a-]	*	*k[b-e-a-]	*	*k[e-b-a-]	*	*k[e-b-a-]	*	*k[b-e-a-]	*	*k[b-e-a-]	*
*M2/4	*	*M2/4	*	*M2/4	*	*M2/4	*	*M2/4	*	*M2/4	*
!LO:TX:a:t=problem:część "Allegro" zapisana na karcie partii Corno 1mo	!	!LO:TX:a:t=problem:część "Allegro" zapisana na karcie partii Corno 2do	!	!	!	!	!	!	!	!	!
!LO:TX:a:B:t=Allegro	!	!LO:TX:a:B:t=Allegro	!	!LO:TX:a:B:t=Allo	!	!LO:TX:a:B:t=Allo	!	!LO:TX:a:B:t=Allegro	!	!LO:TX:a:B:t=Allo	!
4e-\	p	4g\	.	8C\L	.	8c\L	.	(4e-/	.	16cc\LL	p
.	.	.	.	.	.	.	.	.	.	16ee-\	.
.	.	.	.	8C\	.	8c\	.	.	.	16dd\	.
.	.	.	.	.	.	.	.	.	.	16ee-\JJ	.
4r	.	4r	.	8C\	.	8c\	.	4g/)	.	16ff\LL	.
.	.	.	.	.	.	.	.	.	.	16ee-\	.
.	.	.	.	8C\J	.	8c\J	.	.	.	16dd\	.
.	.	.	.	.	.	.	.	.	.	16ee-\JJ	.
=164	=164	=164	=164	=164	=164	=164	=164	=164	=164	=164	=164
4e-\	.	4g\	.	8C\L	.	8c\L	.	(4e-/	.	16cc\LL	.
.	.	.	.	.	.	.	.	.	.	16ee-\	.
.	.	.	.	8C\	.	8c\	.	.	.	16dd\	.
.	.	.	.	.	.	.	.	.	.	16ee-\JJ	.
4r	.	4r	.	8C\	.	8c\	.	4g/)	.	16ff\LL	.
.	.	.	.	.	.	.	.	.	.	16ee-\	.
.	.	.	.	8C\J	.	8c\J	.	.	.	16dd\	.
.	.	.	.	.	.	.	.	.	.	16ee-\JJ	.
=165	=165	=165	=165	=165	=165	=165	=165	=165	=165	=165	=165
2f\	.	2f\	.	8C\L	.	8c\L	.	(4f/	.	16dd\LL	.
.	.	.	.	.	.	.	.	.	.	16ff\	.
.	.	.	.	8C\	.	8c\	.	.	.	16eeX\	.
.	.	.	.	.	.	.	.	.	.	16ff\JJ	.
.	.	.	.	8C\	.	8c\	.	4a-/)	.	16gg\LL	.
.	.	.	.	.	.	.	.	.	.	16ff\	.
.	.	.	.	8C\J	.	8c\J	.	.	.	16ee\	.
.	.	.	.	.	.	.	.	.	.	16ff\JJ	.
=166	=166	=166	=166	=166	=166	=166	=166	=166	=166	=166	=166
2g\	.	2f\	.	8C\L	.	8c\L	.	2f/	.	2dd\	.
.	.	.	.	8C\	.	8c\	.	.	.	.	.
.	.	.	.	8C\	.	8c\	.	.	.	.	.
.	.	.	.	8C\J	.	8c\J	.	.	.	.	.
=167	=167	=167	=167	=167	=167	=167	=167	=167	=167	=167	=167
4f\	.	4f\	.	8C\L	.	8c\L	.	(4f/	f	16dd\LL	.
.	.	.	.	.	.	.	.	.	.	16ff\	.
.	.	.	.	8C\	.	8c\	.	.	.	16eeX\	.
.	.	.	.	.	.	.	.	.	.	16ff\JJ	.
4r	.	4r	.	8C\	.	8c\	.	4a-/)	.	16gg\LL	.
.	.	.	.	.	.	.	.	.	.	16ff\	.
.	.	.	.	8C\J	.	8c\J	.	.	.	16ee\	.
.	.	.	.	.	.	.	.	.	.	16ff\JJ	.
*	*	*	*	*Xtremolo	*	*Xtremolo	*	*	*	*	*
=168	=168	=168	=168	=168	=168	=168	=168	=168	=168	=168	=168
2f\	f	2g\	.	2BBn/	.	8Bn\L	.	(4f/	.	16dd\LL	.
.	.	.	.	.	.	.	.	.	.	16ff\	.
.	.	.	.	.	.	8B\	.	.	.	16gg\	.
.	.	.	.	.	.	.	.	.	.	16aa-\JJ	.
.	.	.	.	.	.	8d\	.	4g/)	.	16gg\LL	.
.	.	.	.	.	.	.	.	.	.	16ff\	.
.	.	.	.	.	.	8d\J	.	.	.	16ee-\	.
.	.	.	.	.	.	.	.	.	.	16dd\JJ	.
=169	=169	=169	=169	=169	=169	=169	=169	=169	=169	=169	=169
!	!	!	!	!	!	!	!	!	!	!LO:LB:g=original	!
4e-\	.	4g\	.	4C\	.	4c\	.	(4e-/	.	16cc\LL	.
.	.	.	.	.	.	.	.	.	.	16ee-\	.
.	.	.	.	.	.	.	.	.	.	16dd\	.
.	.	.	.	.	.	.	.	.	.	16ee-\JJ	.
4e-\	.	4g\	.	4C\	.	4c\	.	4g/)	.	16ff\LL	.
.	.	.	.	.	.	.	.	.	.	16ee-\	.
.	.	.	.	.	.	.	.	.	.	16dd\	.
.	.	.	.	.	.	.	.	.	.	16ee-\JJ	.
=170	=170	=170	=170	=170	=170	=170	=170	=170	=170	=170	=170
!LO:LB:g=original	!	!LO:LB:g=original	!	!	!	!	!	!	!	!	!
4e-\	.	4g\	.	4C\	.	4c\	.	4e-/	.	4cc\	.
!LO:TX:a:t=8	!	!LO:TX:a:t=8	!	!LO:TX:a:t=8	!	!LO:TX:a:t=8	!	!LO:TX:a:t=8	!	!LO:TX:a:t=8	!
4r	.	4r	.	4r	.	4r	.	4r	.	4r	.
=171:|!|:	=171:|!|:	=171:|!|:	=171:|!|:	=171:|!|:	=171:|!|:	=171:|!|:	=171:|!|:	=171:|!|:	=171:|!|:	=171:|!|:	=171:|!|:
*>K	*	*>K	*	*>K	*	*>K	*	*>K	*	*>K	*
*	*	*	*	*	*	*tremolo	*	*	*	*	*
!LO:TX:a:t=7	!	!LO:TX:a:t=7	!	!	!	!	!	!	!	!	!
!LO:N:vis=00	!	!LO:N:vis=00	!	!	!	!	!	!	!	!	!
0r	.	0r	.	4.F\	.	8c\L	.	2cc\	p	4.dd\	p
.	.	.	.	.	.	8c\	.	.	.	.	.
.	.	.	.	.	.	8c\	.	.	.	.	.
.	.	.	.	8G\	.	8c\J	.	.	.	8ee-\	.
=172	=172	=172	=172	=172	=172	=172	=172	=172	=172	=172	=172
.	.	.	.	4.A-\	.	8c\L	.	2cc\	.	4.ff\	.
.	.	.	.	.	.	8c\	.	.	.	.	.
.	.	.	.	.	.	8c\	.	.	.	.	.
.	.	.	.	8G\	.	8c\J	.	.	.	8ee-\	.
=173	=173	=173	=173	=173	=173	=173	=173	=173	=173	=173	=173
!	!	!	!	!	!	!	!	!LO:LB:g=original	!	!	!
.	.	.	.	8F\L	.	8c\L	.	2cc\	.	8dd\L	.
.	.	.	.	8G\	.	8c\	.	.	.	8ee-\	.
.	.	.	.	8A-\	.	8c\	.	.	.	8ff\	.
.	.	.	.	8G\J	.	8c\J	.	.	.	8ee-\J	.
=174	=174	=174	=174	=174	=174	=174	=174	=174	=174	=174	=174
!	!	!	!	!LO:LB:g=original	!	!	!	!	!	!	!
.	.	.	.	4G\	.	8c\L	.	2cc\	.	4ee-\	.
.	.	.	.	.	.	8c\	.	.	.	.	.
.	.	.	.	4F\	.	8c\	.	.	.	4dd\	.
.	.	.	.	.	.	8c\J	.	.	.	.	.
=175	=175	=175	=175	=175	=175	=175	=175	=175	=175	=175	=175
!LO:N:vis=1	!	!LO:N:vis=0	!	!	!	!	!	!	!	!	!
1r	.	1r	.	4.F\	.	8c\L	.	2cc\	.	4.dd\	.
.	.	.	.	.	.	8c\	.	.	.	.	.
.	.	.	.	.	.	8c\	.	.	.	.	.
.	.	.	.	8G\	.	8c\J	.	.	.	8ee-\	.
=176	=176	=176	=176	=176	=176	=176	=176	=176	=176	=176	=176
.	.	.	.	4.A-\	.	8c\L	.	2cc\	.	4.ff\	.
.	.	.	.	.	.	8c\	.	.	.	.	.
.	.	.	.	.	.	8c\	.	.	.	.	.
.	.	.	.	8G\	.	8c\J	.	.	.	8ee-\	.
=177	=177	=177	=177	=177	=177	=177	=177	=177	=177	=177	=177
2r;	.	2r;	.	8F\L	.	8c\L	.	2cc\	.	8dd\L	.
.	.	.	.	8G\	.	8c\	.	.	.	8ee-\	.
.	.	.	.	8A-\	.	8c\	.	.	.	8ff\	.
.	.	.	.	8G\J	.	8c\J	.	.	.	8ee-\J	.
=178	=178	=178	=178	=178	=178	=178	=178	=178	=178	=178	=178
!	!	!	!	!	!	!	!	!	!	!	!
2r;	.	2r;	.	4F#X;\	.	4An;\	.	4cc;\	.	4ee-;\	f
.	.	.	.	4G;\	.	4Bn;\	.	4bX;\	.	4dd;\	.
=179	=179	=179	=179	=179	=179	=179	=179	=179	=179	=179	=179
!	!	!	!	!	!	!LO:LB:g=original	!	!	!	!	!
2g\	f	2g\	.	8.C/L	f	8.C/L	f	4.b-X\	.	4.eeX\	.
.	.	.	.	32En/LL	.	32En/LL	.	.	.	.	.
.	.	.	.	32G/JJJ	.	32G/JJJ	.	.	.	.	.
.	.	.	.	8c\L	.	8c\L	.	.	.	.	.
.	.	.	.	8B-X\J	.	8B-X\J	.	8g\	.	8ee\	.
=180	=180	=180	=180	=180	=180	=180	=180	=180	=180	=180	=180
!	!	!	!	!	!	!	!	!	!	!LO:LB:g=original	!
2f\	.	2f\	.	8A-X\L	.	8A-X\L	.	4.a-X\	.	4.ff\	.
.	.	.	.	8c\	.	8c\	.	.	.	.	.
.	.	.	.	8A-\	.	8A-\	.	.	.	.	.
.	.	.	.	8F\J	.	8F\J	.	8a-\	.	8aa-\	.
=181	=181	=181	=181	=181	=181	=181	=181	=181	=181	=181	=181
!	!	!	!	!LO:N:vis=8	!	!LO:N:vis=8	!	!	!	!	!
2B-/	.	2f\	.	8.BB-/L	.	8.BB-/L	.	4.a-\	.	4.dd\	.
.	.	.	.	32D/LL	.	32D/LL	.	.	.	.	.
.	.	.	.	32F/JJJ	.	32F/JJJ	.	.	.	.	.
.	.	.	.	8B-\L	.	8B-\L	.	.	.	.	.
.	.	.	.	8A-X\J	.	8A-X\J	.	8f\	.	8dd\	.
=182	=182	=182	=182	=182	=182	=182	=182	=182	=182	=182	=182
2E-/	.	2e-\	.	8G\L	.	8G\L	.	4.g\	.	4.ee-X\	.
.	.	.	.	8B-\	.	8B-\	.	.	.	.	.
.	.	.	.	8G\	.	8G\	.	.	.	.	.
.	.	.	.	8E-\J	.	8E-\J	.	8b-\	.	8gg\	.
=183	=183	=183	=183	=183	=183	=183	=183	=183	=183	=183	=183
*	*	*	*	*	*	*	*	*	*	*	*
!	!	!	!	!	!	!	!	!LO:LB:g=original	!	!	!
2E-/	.	2e-\	.	8E-\L	f	8E-\L	f	8gg\	f	8bb-\	.
.	.	.	.	8E-\	.	8E-\	.	4ff\	.	4aa-\	.
.	.	.	.	8E-\	.	8E-\	.	.	.	.	.
.	.	.	.	8E-\J	.	8E-\J	.	8ee-\	.	8gg\	.
=184	=184	=184	=184	=184	=184	=184	=184	=184	=184	=184	=184
!	!	!	!	!LO:LB:g=original	!	!	!	!	!	!	!
2E-/	.	2e-\	.	8E-\L	.	8E-\L	.	8ee-\	.	8gg\	.
.	.	.	.	8E-\	.	8E-\	.	4dd\	.	4ff\	.
.	.	.	.	8E-\	.	8E-\	.	.	.	.	.
.	.	.	.	8E-\J	.	8E-\J	.	8cc\	.	8ee-\	.
=185	=185	=185	=185	=185	=185	=185	=185	=185	=185	=185	=185
!	!	!LO:LB:g=original	!	!LO:TX:a:t=problem:repetycja t. 176	!	!LO:TX:a:t=problem:repetycja t. 176	!	!	!	!	!
2E-/	.	2e-\	.	8E-\Lyy	.	8E-\Lyy	.	8cc\	.	8ee-\	.
.	.	.	.	8E-\yy	.	8E-\yy	.	4b-\	.	4dd-X\	.
.	.	.	.	8E-\yy	.	8E-\yy	.	.	.	.	.
.	.	.	.	8E-\Jyy	.	8E-\Jyy	.	8a-\	.	8cc\	.
=186	=186	=186	=186	=186	=186	=186	=186	=186	=186	=186	=186
!LO:LB:g=original	!	!	!	!	!	!	!	!	!	!	!
4E-/	.	4e-\	.	4AA-/	.	4AA-/	.	4a-\	.	4cc\	.
4r	.	4r	.	4r	.	4r	.	4r	.	4r	.
=187	=187	=187	=187	=187	=187	=187	=187	=187	=187	=187	=187
!	!	!	!	!	!	!LO:LB:g=original	!	!	!	!	!
2B-/	.	2f\	.	8BB-/L	.	8BB-/L	.	2ff\	f	2aa-\	.
.	.	.	.	8C/	.	8C/	.	.	.	.	.
.	.	.	.	8D/	.	8D/	.	.	.	.	.
.	.	.	.	8BB-/J	.	8BB-/J	.	.	.	.	.
=188	=188	=188	=188	=188	=188	=188	=188	=188	=188	=188	=188
8e-\	.	8g\	.	8E-\	.	8E-\	.	8ee-\	.	8gg\	.
8r	.	8r	.	8r	.	8r	.	8r	.	8r	.
8e-\	.	8g\	.	8C\	.	8C\	.	8g\	.	8ee-\	.
8r	.	8r	.	8r	.	8r	.	8r	.	8r	.
=189	=189	=189	=189	=189	=189	=189	=189	=189	=189	=189	=189
8f\	.	8f\	.	8AA-/	.	8AA-/	.	8a-\	.	8ff\	.
8r	.	8r	.	8r	.	8r	.	8r	.	8r	.
8B-/	.	8f\	.	8BB-/	.	8BB-/	.	8f\	.	8dd\	.
8r	.	8r	.	8r	.	8r	.	8r	.	8r	.
=190	=190	=190	=190	=190	=190	=190	=190	=190	=190	=190	=190
*	*	*	*	*tremolo	*	*	*	*	*	*	*
2E-/	.	2e-\	.	8E-\L	.	8E-\L	.	8gg\	f	8bb-\	.
.	.	.	.	8E-\	.	8E-\	.	4ff\	.	4aa-\	.
.	.	.	.	8E-\	.	8E-\	.	.	.	.	.
.	.	.	.	8E-\J	.	8E-\J	.	8ee-\	.	8gg\	.
=191	=191	=191	=191	=191	=191	=191	=191	=191	=191	=191	=191
!	!	!	!	!	!	!	!	!LO:LB:g=original	!	!	!
2E-/	.	2e-\	.	8E-\L	.	8E-\L	.	8ee-\	.	8gg\	.
.	.	.	.	8E-\	.	8E-\	.	4dd\	.	4ff\	.
.	.	.	.	8E-\	.	8E-\	.	.	.	.	.
.	.	.	.	8E-\J	.	8E-\J	.	8cc\	.	8ee-\	.
=192	=192	=192	=192	=192	=192	=192	=192	=192	=192	=192	=192
!	!	!	!	!	!	!	!	!	!	!LO:LB:g=original	!
!	!	!	!	!	!	!	!	!	!	!LO:N:vis=4.	!
2E-/	.	2e-\	.	8E-\L	.	8E-\L	.	8cc\	.	8ee-\	.
.	.	.	.	8E-\	.	8E-\	.	4b-\	.	4dd-X\	.
.	.	.	.	8E-\	.	8E-\	.	.	.	.	.
.	.	.	.	8E-\J	.	8E-\J	.	8a-\	.	8cc\	.
*	*	*	*	*Xtremolo	*	*	*	*	*	*	*
=193	=193	=193	=193	=193	=193	=193	=193	=193	=193	=193	=193
!	!	!LO:LB:g=original	!	!	!	!	!	!	!	!	!
4E-/	.	4e-\	.	4AA-/	.	4AA-/	.	4a-\	.	4cc\	.
4r	.	4r	.	4r	.	4r	.	4r	.	4r	.
=194	=194	=194	=194	=194	=194	=194	=194	=194	=194	=194	=194
!LO:LB:g=original	!	!	!	!	!	!	!	!	!	!	!
2c/	.	2f\	.	8BB-/L	.	8BB-/L	.	2ff\	f	2aa-\	.
.	.	.	.	8C/	.	8C/	.	.	.	.	.
.	.	.	.	8D/	.	8D/	.	.	.	.	.
.	.	.	.	8BB-/J	.	8BB-/J	.	.	.	.	.
=195	=195	=195	=195	=195	=195	=195	=195	=195	=195	=195	=195
8e-\	.	8g\	.	8E-\	.	8E-\	.	8ee-\	.	8gg\	.
8r	.	8r	.	8r	.	8r	.	8r	.	8r	.
8e-\	.	8g\	.	8C\	.	8c\	.	8g\	.	8ee-\	.
8r	.	8r	.	8r	.	8r	.	8r	.	8r	.
=196	=196	=196	=196	=196	=196	=196	=196	=196	=196	=196	=196
!	!	!	!	!LO:LB:g=original	!	!	!	!	!	!	!
8f\	.	8f\	.	8AA-/	.	8A-\	.	8a-\	.	8ff\	.
8r	.	8r	.	8r	.	8r	.	8r	.	8r	.
8B-/	.	8f\	.	8BB-/	.	8B-\	.	8f\	.	8dd\	.
8r	.	8r	.	8r	.	8r	.	8r	.	8r	.
=197	=197	=197	=197	=197	=197	=197	=197	=197	=197	=197	=197
!	!	!	!	!	!	!LO:LB:g=original	!	!	!	!	!
4E-/	.	4e-\	.	2E-\	p	2E-\	p	4g/	p	4ee-\	p
4r	.	4r	.	.	.	.	.	4g/	.	4ee-\	.
=198	=198	=198	=198	=198	=198	=198	=198	=198	=198	=198	=198
!LO:TX:a:t=7	!	!LO:TX:a:t=7	!	!	!	!	!	!	!	!	!
!LO:N:vis=00	!	!LO:N:vis=00	!	!	!	!	!	!	!	!	!
0r	.	0r	.	4F\	.	4F\	.	4f/	.	4dd\	.
.	.	.	.	4F#X\	.	4F#X\	.	4e-/	.	4cc\	.
=199	=199	=199	=199	=199	=199	=199	=199	=199	=199	=199	=199
.	.	.	.	4G\	.	4G\	.	4d/	.	4bX\	.
.	.	.	.	4E-\	.	4E-\	.	4ee-\	.	4gg\	.
=200	=200	=200	=200	=200	=200	=200	=200	=200	=200	=200	=200
.	.	.	.	4F\	.	4F\	.	4dd\	.	4ff\	.
.	.	.	.	4F#X\	.	4F#X\	.	4cc\	.	4ee-\	.
=201	=201	=201	=201	=201	=201	=201	=201	=201	=201	=201	=201
!	!	!	!	!	!	!	!	!LO:TX:a:t=problem:niejednoznaczny zapis wysokości dźwięku	!	!	!
.	.	.	.	4G\	.	4G\	.	4bX\	.	4dd\	.
.	.	.	.	4r	.	4r	.	4r	.	4r	.
=202	=202	=202	=202	=202	=202	=202	=202	=202	=202	=202	=202
!	!	!	!	!	!	!	!	!LO:TX:a:t=problem:nieokreślony znak - obiegnik?	!	!	!
!LO:N:vis=0	!	!LO:N:vis=0	!	!	!	!	!	!LO:TX:a:t=problem:skreślony takt	!	!	!
1r	.	1r	.	2F#X\	.	2F#X\	.	2cc\	.	2ee-\	.
=203	=203	=203	=203	=203	=203	=203	=203	=203	=203	=203	=203
!	!	!	!	!	!	!	!	!LO:LB:g=original	!	!	!
.	.	.	.	4G\	.	4G\	.	4bX\	.	4dd\	.
.	.	.	.	4r	.	4r	.	4r	.	4r	.
=204	=204	=204	=204	=204	=204	=204	=204	=204	=204	=204	=204
2r;	.	2r;	.	2AA-X;/	f	2A-X;\	f	2cc;\	f	2ff#X;\	.
=205	=205	=205	=205	=205	=205	=205	=205	=205	=205	=205	=205
2r;	.	2r;	.	4GG;/	.	4G;\	.	4bX;\	.	4gg;\	.
.	.	.	.	4r	.	4r	.	4r	.	4r	.
=206	=206	=206	=206	=206	=206	=206	=206	=206	=206	=206	=206
!	!	!LO:LB:g=original	!	!	!	!LO:TX:a:t=problem:niejednoznaczny zapis łuku	!	!	!	!	!
!	!	!	!	!	!	!	!	!	!	!LO:LB:g=original	!
4e-\	p	4g\	.	2C/	.	(8c\L	.	4e-/	.	16cc\LL	p
.	.	.	.	.	.	.	.	.	.	16ee-\	.
.	.	.	.	.	.	8c\	.	.	.	16dd\	.
.	.	.	.	.	.	.	.	.	.	16ee-\JJ	.
4r	.	4r	.	.	.	8c\	.	4g/	.	16ff\LL	.
.	.	.	.	.	.	.	.	.	.	16ee-\	.
.	.	.	.	.	.	8c\J	.	.	.	16dd\	.
.	.	.	.	.	.	.	.	.	.	16ee-\JJ	.
=207	=207	=207	=207	=207	=207	=207	=207	=207	=207	=207	=207
!LO:LB:g=original	!	!	!	!	!	!	!	!	!	!	!
4e-\	.	4g\	.	2C/	.	8c\L	.	4e-/	.	16cc\LL	.
.	.	.	.	.	.	.	.	.	.	16ee-\	.
.	.	.	.	.	.	8c\	.	.	.	16dd\	.
.	.	.	.	.	.	.	.	.	.	16ee-\JJ	.
4r	.	4r	.	.	.	8c\	.	4g/	.	16ff\LL	.
.	.	.	.	.	.	.	.	.	.	16ee-\	.
.	.	.	.	.	.	8c\J)	.	.	.	16dd\	.
.	.	.	.	.	.	.	.	.	.	16ee-\JJ	.
=208	=208	=208	=208	=208	=208	=208	=208	=208	=208	=208	=208
!	!	!	!	!LO:LB:g=original	!	!LO:TX:a:t=problem:niejednoznaczny zapis łuku	!	!	!	!	!
!	!	!	!	!	!	!LO:TX:a:t=problem:repetycja tt. 198-199	!	!	!	!	!
2f\	.	2f\	.	2C/	.	(8c\Lyy	.	4f/	.	16dd\LL	.
.	.	.	.	.	.	.	.	.	.	16ff\	.
.	.	.	.	.	.	8c\Jyy	.	.	.	16eeX\	.
.	.	.	.	.	.	.	.	.	.	16ff\JJ	.
.	.	.	.	.	.	8c\Lyy	.	4a-/	.	16gg\LL	.
.	.	.	.	.	.	.	.	.	.	16ff\	.
.	.	.	.	.	.	8c\Jyy	.	.	.	16ee\	.
.	.	.	.	.	.	.	.	.	.	16ff\JJ	.
=209	=209	=209	=209	=209	=209	=209	=209	=209	=209	=209	=209
2f\	.	2f\	.	2C/	.	8c\Lyy	.	2f/	.	2dd\	.
.	.	.	.	.	.	8c\Jyy	.	.	.	.	.
.	.	.	.	.	.	8c\Lyy	.	.	.	.	.
.	.	.	.	.	.	8c\J)yy	.	.	.	.	.
=210	=210	=210	=210	=210	=210	=210	=210	=210	=210	=210	=210
4f\	.	4f\	.	2C/	.	8c\L	.	4f/	.	16dd\LL	.
.	.	.	.	.	.	.	.	.	.	16ff\	.
.	.	.	.	.	.	8c\	.	.	.	16eeX\	.
.	.	.	.	.	.	.	.	.	.	16ff\JJ	.
4r	.	4r	.	.	.	8c\	.	4a-/	.	16gg\LL	.
.	.	.	.	.	.	.	.	.	.	16ff\	.
.	.	.	.	.	.	8c\J	.	.	.	16ee\	.
.	.	.	.	.	.	.	.	.	.	16ff\JJ	.
*	*	*	*	*	*	*Xtremolo	*	*	*	*	*
=211	=211	=211	=211	=211	=211	=211	=211	=211	=211	=211	=211
2f\	.	2g\	.	2BBn/	.	8Bn\L	.	4f/	.	16dd\LL	.
.	.	.	.	.	.	.	.	.	.	16ff\	.
.	.	.	.	.	.	8B\	.	.	.	16gg\	.
.	.	.	.	.	.	.	.	.	.	16aa-\JJ	.
.	.	.	.	.	.	8d\	.	4g/	.	16gg\LL	.
.	.	.	.	.	.	.	.	.	.	16ff\	.
.	.	.	.	.	.	8d\J	.	.	.	16ee-\	.
.	.	.	.	.	.	.	.	.	.	16dd\JJ	.
=212	=212	=212	=212	=212	=212	=212	=212	=212	=212	=212	=212
4e-\	.	4g\	.	4C/	.	4c\	.	4e-/	.	16cc\LL	.
.	.	.	.	.	.	.	.	.	.	16ee-\	.
.	.	.	.	.	.	.	.	.	.	16dd\	.
.	.	.	.	.	.	.	.	.	.	16ee-\JJ	.
4e-\	.	4g\	.	4C/	.	4c\	.	4g/	.	16ff\LL	.
.	.	.	.	.	.	.	.	.	.	16ee-\	.
.	.	.	.	.	.	.	.	.	.	16dd\	.
.	.	.	.	.	.	.	.	.	.	16ee-\JJ	.
=213	=213	=213	=213	=213	=213	=213	=213	=213	=213	=213	=213
*>K1	*	*>K1	*	*>K1	*	*>K1	*	*>K1	*	*>K1	*
!	!	!	!	!	!	!	!	!	!	!LO:LB:g=original	!
4e-\	.	4g\	.	4C;</	.	4c\	.	4e-/	.	4cc\	.
!	!	!	!	!	!	!	!	!LO:TX:a:t=problem:1 volta oznaczona łukiem adnotacja "1mo"	!	!LO:TX:a:t=problem:1 volta oznaczona łukiem adnotacja "1mo"	!
!LO:TX:a:t=problem:1 volta oznaczona łukiem adnotacja "1mo"	!	!LO:TX:a:t=problem:1 volta oznaczona łukiem adnotacja "1mo"	!	!LO:TX:a:t=problem:1 volta oznaczona łukiem adnotacja "1mo"	!	!LO:TX:a:t=problem:1 volta oznaczona łukiem adnotacja "1mo"	!	!	!	!	!
4r	.	4r	.	4r	.	4r	.	4r	.	4r	.
=214:|!	=214:|!	=214:|!	=214:|!	=214:|!	=214:|!	=214:|!	=214:|!	=214:|!	=214:|!	=214:|!	=214:|!
!	!	!LO:LB:g=original	!	!	!	!	!	!	!	!	!
*>K2	*	*>K2	*	*>K2	*	*>K2	*	*>K2	*	*>K2	*
!LO:TX:b:t=Coda	!LO:DY:a	!LO:TX:b:t=Coda	!	!LO:TX:b:t=Coda	!	!LO:TX:a:t=problem:2 volta oznaczona łukiem adnotacja "2do"	!	!LO:TX:a:t=problem:2 volta oznaczona łukiem adnotacja "2"	!	!LO:TX:a:t=problem:2 volta oznaczona łukiem adnotacja "2do"	!
!LO:TX:a:t=problem:2 volta oznaczona łukiem adnotacja "2do"	!	!LO:TX:a:t=problem:2 volta oznaczona łukiem adnotacja "2do"	!LO:DY:a	!LO:TX:a:t=problem:2 volta oznaczona łukiem adnotacja "2do"	!	!LO:TX:b:t=Coda	!	!LO:TX:b:t=Coda	!	!LO:TX:b:t=Coda	!
4e-\	p	4g\	p	4C\	.	4c\	.	4e-/	.	4cc\	.
!	!	!LO:TX:a:t=problem:laseczka z prawej strony nuty	!	!	!	!	!	!	!	!	!
4r	.	8f\	.	4C\	.	4c\	.	8ee-\L	.	8gg\L	.
.	.	8r	.	.	.	.	.	8ee-\J	.	8gg\J	.
=215	=215	=215	=215	=215	=215	=215	=215	=215	=215	=215	=215
!LO:LB:g=original	!	!	!	!	!	!	!	!	!	!	!
!LO:TX:a:t=4	!	!LO:TX:a:t=4	!	!	!	!LO:LB:g=original	!	!LO:LB:g=original	!	!	!
!LO:N:vis=00	!	!LO:N:vis=00	!	!	!	!	!	!	!	!	!
0r	.	0r	.	4F\	.	4F\	.	(8ee-\L	f	8gg\L	f
.	.	.	.	.	.	.	.	8ff\)	.	8aa-\J	.
.	.	.	.	4B-\	.	4B-\	.	8dd'\	p	8ff\L	.
.	.	.	.	.	.	.	.	8dd'\J	.	8ff\J	.
=216	=216	=216	=216	=216	=216	=216	=216	=216	=216	=216	=216
.	.	.	.	4E-\	.	4E-\	.	(8dd\L	f	8ff\L	.
.	.	.	.	.	.	.	.	8ee-\)	.	8gg\	.
.	.	.	.	4A-\	.	4A-\	.	8cc'\	p	8ee-\	.
.	.	.	.	.	.	.	.	8cc'\J	.	8ee-\J	.
=217	=217	=217	=217	=217	=217	=217	=217	=217	=217	=217	=217
.	.	.	.	4F\	.	4F\	.	4cc\	f	8dd\L	.
.	.	.	.	.	.	.	.	.	.	8aa-\	.
.	.	.	.	4G\	.	4G\	.	8ee-\L	.	8gg\	.
.	.	.	.	.	.	.	.	8dd\J	.	8bX\J	.
=218	=218	=218	=218	=218	=218	=218	=218	=218	=218	=218	=218
.	.	.	.	4C\	.	4c\	.	4cc\	f	4cc\	p
.	.	.	.	4E-\	.	4e-\	.	8ee-\L	p	8gg\L	.
.	.	.	.	.	.	.	.	8ee-\J	.	8gg\J	.
=219	=219	=219	=219	=219	=219	=219	=219	=219	=219	=219	=219
4f\	.	4f\	.	4AA-/	.	4A-\	.	(8ee-\L	f	8gg\L	f
.	.	.	.	.	.	.	.	8ff\)	.	8aa-\	.
4r	.	4r	.	4BB-/	.	4B-\	.	8dd'\	p	8ff\	p
.	.	.	.	.	.	.	.	8dd'\J	.	8ff\J	.
=220	=220	=220	=220	=220	=220	=220	=220	=220	=220	=220	=220
4e-\	.	4e-\	.	4E-\	.	4e-\	.	8dd\L	f	8ff\L	f
.	.	.	.	.	.	.	.	8ee-\	.	8gg\	.
4r	.	4r	.	4C\	.	4c\	.	8g\	.	8ee-\	.
.	.	.	.	.	.	.	.	8g\J	.	8ee-\J	.
=221	=221	=221	=221	=221	=221	=221	=221	=221	=221	=221	=221
!	!	!	!	!LO:LB:g=original	!	!	!	!	!	!	!
4f\	.	4f\	.	4F\	.	4c\	.	8a-'\L	.	8dd\L	.
!	!	!	!	!	!	!	!	!LO:TX:a:t=problem:niejednoznaczny zapis łuku	!	!	!
.	.	.	.	.	.	.	.	(8a-\	.	8ff\	.
4g\	.	4g\	.	4G\	.	4Bn\	.	8g\	.	8ee-\	.
.	.	.	.	.	.	.	.	8f\J)	.	8dd\J	.
=222	=222	=222	=222	=222	=222	=222	=222	=222	=222	=222	=222
4e-\	.	4e-\	.	2C\	p	2c\	p	4.e-/	.	4.cc\	.
4r	.	4r	.	.	.	.	.	.	.	.	.
.	.	.	.	.	.	.	.	8g/	.	8ee-\	.
=223	=223	=223	=223	=223	=223	=223	=223	=223	=223	=223	=223
!LO:TX:a:t=2	!LO:N:vis=0	!LO:TX:a:t=2	!	!	!	!	!	!LO:LB:g=original	!	!LO:LB:g=original	!
!LO:N:vis=0	!	!	!	!	!	!	!	!	!	!	!
1r	.	1r	.	2F\	.	2F\	.	(8b-\L	.	8ee-\L	.
.	.	.	.	.	.	.	.	8f\)	.	8dd\	.
.	.	.	.	.	.	.	.	8f'\	.	8dd\	.
.	.	.	.	.	.	.	.	8f'\J	.	8dd\J	.
=224	=224	=224	=224	=224	=224	=224	=224	=224	=224	=224	=224
.	.	.	.	2G\	.	2G\	.	8f/L	.	8dd\L	.
.	.	.	.	.	.	.	.	8d/	.	8bX\	.
.	.	.	.	.	.	.	.	8d/	.	8b\	.
.	.	.	.	.	.	.	.	8d/J	.	8b\J	.
=225	=225	=225	=225	=225	=225	=225	=225	=225	=225	=225	=225
2E-/	.	2e-\	.	2A-\	.	2A-\	.	2e-/	.	4.cc\	<
.	.	.	.	.	.	.	.	.	.	8ee-\	[[
=226	=226	=226	=226	=226	=226	=226	=226	=226	=226	=226	=226
2f\	.	2f\	.	2F\	.	2F\	.	2a-\	.	8ee-\L	.
.	.	.	.	.	.	.	.	.	.	8dd\	.
.	.	.	.	.	.	.	.	.	.	8dd\	.
.	.	.	.	.	.	.	.	.	.	8dd\J	.
=227	=227	=227	=227	=227	=227	=227	=227	=227	=227	=227	=227
!LO:LB:g=original	!	!LO:LB:g=original	!	!	!	!	!	!	!	!	!
2g\	.	2g\	.	2G\	.	2G\	.	8f/L	.	8dd\L	.
.	.	.	.	.	.	.	.	8d/	.	8bX\J	.
.	.	.	.	.	.	.	.	8d/	.	8b\L	.
.	.	.	.	.	.	.	.	8d/J	.	8b\J	.
=228	=228	=228	=228	=228	=228	=228	=228	=228	=228	=228	=228
4e-\	.	4g\	.	4C/	.	4C/	.	4e-/	.	4cc\	.
4r	.	4r	.	4r	.	4r	.	4r	.	4r	.
=229	=229	=229	=229	=229	=229	=229	=229	=229	=229	=229	=229
4e-\	p	4g\	.	8C\L	.	8c\L	.	(8e-/L	.	4g/	p
.	.	.	.	8BBn\	.	8Bn\	.	8d/)	.	.	.
4e-\	.	4g\	.	8C\	.	8c\	.	(8e-/	.	4g/	.
.	.	.	.	8BB\J	.	8B\J	.	8d/J)	.	.	.
=230	=230	=230	=230	=230	=230	=230	=230	=230	=230	=230	=230
4e-\	.	4g\	.	4C\	.	4c\	.	4e-/	.	4g/	.
4r	.	4r	.	4r	.	4r	.	4r	.	4r	.
=231	=231	=231	=231	=231	=231	=231	=231	=231	=231	=231	=231
!	!	!	!	!	!	!LO:LB:g=original	!	!	!	!	!
4G/	.	4e-\	.	4C/	.	4C/	.	4G/	.	4c/	.
4G/	.	4e-\	.	4C/	.	4C/	.	4G/	.	4c/	.
=232	=232	=232	=232	=232	=232	=232	=232	=232	=232	=232	=232
4G/	.	4e-\	.	4CC/	.	4C/	.	4G/	.	4c/	.
!LO:TX:a:t=62	!	!LO:TX:a:t=62	!	!LO:TX:a:t=62	!	!LO:TX:a:t=62	!	!LO:TX:a:t=62	!	!	!
4r	.	4r	.	4r	.	4r	.	4r	.	4r	.
==	==	==	==	==	==	==	==	==	==	==	==
*-	*-	*-	*-	*-	*-	*-	*-	*-	*-	*-	*-
!!!system-decoration: [(g1)][(g2)]
!!!RDF**dynam: f=for
!!!RDF**dynam: p=p:
!!!RDF**kern: >= above
!!!RDF**kern: <= below
!!!ENC: Anna Matuszewska
!!!END: 2020-06-24
!!!YEC: Copyright 2022 Narodowy Instytut Fryderyka Chopina (https://polishscores.org)
!!!YEM: Licence CC BY 4.0 (https://creativecommons.org/licenses/by/4.0)
